;code generated for light painting
;by grass hopper
G28
G90
G21
G1 X13.95 Y0.15 Z12.00 F3500 
M42 P11 S255 
G1 X13.66 Y0.47 Z12.00 F3500 
M42 P11 S0 
G1 X13.66 Y0.47 Z12.00 F3500 
M42 P11 S255 
G1 X12.76 Y1.04 Z12.00 F3500 
M42 P11 S0 
G1 X12.76 Y1.04 Z12.00 F3500 
M42 P11 S255 
G1 X12.59 Y1.11 Z12.00 F3500 
M42 P11 S0 
G1 X12.59 Y1.11 Z12.00 F3500 
M42 P11 S255 
G1 X12.35 Y1.17 Z12.00 F3500 
M42 P11 S0 
G1 X12.35 Y1.17 Z12.00 F3500 
M42 P11 S255 
G1 X11.25 Y1.35 Z12.00 F3500 
M42 P11 S0 
G1 X11.25 Y1.35 Z12.00 F3500 
M42 P11 S255 
G1 X10.40 Y1.41 Z12.00 F3500 
M42 P11 S0 
G1 X10.40 Y1.41 Z12.00 F3500 
M42 P11 S255 
G1 X9.73 Y1.31 Z12.00 F3500 
M42 P11 S0 
G1 X9.73 Y1.31 Z12.00 F3500 
M42 P11 S255 
G1 X8.98 Y1.16 Z12.00 F3500 
M42 P11 S0 
G1 X8.98 Y1.16 Z12.00 F3500 
M42 P11 S255 
G1 X7.97 Y0.74 Z12.00 F3500 
M42 P11 S0 
G1 X7.97 Y0.74 Z12.00 F3500 
M42 P11 S255 
G1 X7.15 Y0.32 Z12.00 F3500 
M42 P11 S0 
G1 X7.15 Y0.32 Z12.00 F3500 
M42 P11 S255 
G1 X6.57 Y-0.14 Z12.00 F3500 
M42 P11 S0 
G1 X6.57 Y-0.14 Z12.00 F3500 
M42 P11 S255 
G1 X5.37 Y-1.01 Z12.00 F3500 
M42 P11 S0 
G1 X5.37 Y-1.01 Z12.00 F3500 
M42 P11 S255 
G1 X4.81 Y-1.88 Z12.00 F3500 
M42 P11 S0 
G1 X4.81 Y-1.88 Z12.00 F3500 
M42 P11 S255 
G1 X4.47 Y-2.40 Z12.00 F3500 
M42 P11 S0 
G1 X4.47 Y-2.40 Z12.00 F3500 
M42 P11 S255 
G1 X4.51 Y-2.93 Z12.00 F3500 
M42 P11 S0 
G1 X4.51 Y-2.93 Z12.00 F3500 
M42 P11 S255 
G1 X4.62 Y-3.47 Z12.00 F3500 
M42 P11 S0 
G1 X4.62 Y-3.47 Z12.00 F3500 
M42 P11 S255 
G1 X5.29 Y-4.04 Z12.00 F3500 
M42 P11 S0 
G1 X5.29 Y-4.04 Z12.00 F3500 
M42 P11 S255 
G1 X6.29 Y-4.68 Z12.00 F3500 
M42 P11 S0 
G1 X6.29 Y-4.68 Z12.00 F3500 
M42 P11 S255 
G1 X6.67 Y-4.86 Z12.00 F3500 
M42 P11 S0 
G1 X6.67 Y-4.86 Z12.00 F3500 
M42 P11 S255 
G1 X7.01 Y-5.01 Z12.00 F3500 
M42 P11 S0 
G1 X7.01 Y-5.01 Z12.00 F3500 
M42 P11 S255 
G1 X8.23 Y-5.58 Z12.00 F3500 
M42 P11 S0 
G1 X8.23 Y-5.58 Z12.00 F3500 
M42 P11 S255 
G1 X9.50 Y-6.03 Z12.00 F3500 
M42 P11 S0 
G1 X9.50 Y-6.03 Z12.00 F3500 
M42 P11 S255 
G1 X9.89 Y-6.20 Z12.00 F3500 
M42 P11 S0 
G1 X9.89 Y-6.20 Z12.00 F3500 
M42 P11 S255 
G1 X10.08 Y-6.26 Z12.00 F3500 
M42 P11 S0 
G1 X10.08 Y-6.26 Z12.00 F3500 
M42 P11 S255 
G1 X11.61 Y-6.54 Z12.00 F3500 
M42 P11 S0 
G1 X11.61 Y-6.54 Z12.00 F3500 
M42 P11 S255 
G1 X11.88 Y-6.56 Z12.00 F3500 
M42 P11 S0 
G1 X11.88 Y-6.56 Z12.00 F3500 
M42 P11 S255 
G1 X12.86 Y-6.56 Z12.00 F3500 
M42 P11 S0 
G1 X12.86 Y-6.56 Z12.00 F3500 
M42 P11 S255 
G1 X13.12 Y-6.54 Z12.00 F3500 
M42 P11 S0 
G1 X13.12 Y-6.54 Z12.00 F3500 
M42 P11 S255 
G1 X13.66 Y-6.28 Z12.00 F3500 
M42 P11 S0 
G1 X13.66 Y-6.28 Z12.00 F3500 
M42 P11 S255 
G1 X13.89 Y-6.17 Z12.00 F3500 
M42 P11 S0 
G1 X13.89 Y-6.17 Z12.00 F3500 
M42 P11 S255 
G1 X14.29 Y-5.58 Z12.00 F3500 
M42 P11 S0 
G1 X14.29 Y-5.58 Z12.00 F3500 
M42 P11 S255 
G1 X14.37 Y-5.47 Z12.00 F3500 
M42 P11 S0 
G1 X14.37 Y-5.47 Z12.00 F3500 
M42 P11 S255 
G1 X14.37 Y-5.44 Z12.00 F3500 
M42 P11 S0 
G1 X14.37 Y-5.44 Z12.00 F3500 
M42 P11 S255 
G1 X14.49 Y-4.68 Z12.00 F3500 
M42 P11 S0 
G1 X14.49 Y-4.68 Z12.00 F3500 
M42 P11 S255 
G1 X14.64 Y-3.69 Z12.00 F3500 
M42 P11 S0 
G1 X14.64 Y-3.69 Z12.00 F3500 
M42 P11 S255 
G1 X14.68 Y-3.32 Z12.00 F3500 
M42 P11 S0 
G1 X14.68 Y-3.32 Z12.00 F3500 
M42 P11 S255 
G1 X14.68 Y-1.97 Z12.00 F3500 
M42 P11 S0 
G1 X14.68 Y-1.97 Z12.00 F3500 
M42 P11 S255 
G1 X14.68 Y-1.94 Z12.00 F3500 
M42 P11 S0 
G1 X14.68 Y-1.94 Z12.00 F3500 
M42 P11 S255 
G1 X14.67 Y-1.83 Z12.00 F3500 
M42 P11 S0 
G1 X14.67 Y-1.83 Z12.00 F3500 
M42 P11 S255 
G1 X14.48 Y-0.79 Z12.00 F3500 
M42 P11 S0 
G1 X14.48 Y-0.79 Z12.00 F3500 
M42 P11 S255 
G1 X14.26 Y-0.41 Z12.00 F3500 
M42 P11 S0 
G1 X14.26 Y-0.41 Z12.00 F3500 
M42 P11 S255 
G1 X13.95 Y0.15 Z12.00 F3500 
M42 P11 S0 
G1 X-3.82 Y6.09 Z12.00 F3500 
M42 P11 S255 
G1 X-3.83 Y6.24 Z12.00 F3500 
M42 P11 S0 
G1 X-3.83 Y6.24 Z12.00 F3500 
M42 P11 S255 
G1 X-3.86 Y6.47 Z12.00 F3500 
M42 P11 S0 
G1 X-4.11 Y1.58 Z12.00 F3500 
M42 P11 S255 
G1 X-4.16 Y1.93 Z12.00 F3500 
M42 P11 S0 
G1 X-4.16 Y1.93 Z12.00 F3500 
M42 P11 S255 
G1 X-4.17 Y2.00 Z12.00 F3500 
M42 P11 S0 
G1 X-3.49 Y-5.04 Z12.00 F3500 
M42 P11 S255 
G1 X-3.43 Y-4.85 Z12.00 F3500 
M42 P11 S0 
G1 X-3.43 Y-4.85 Z12.00 F3500 
M42 P11 S255 
G1 X-3.39 Y-4.67 Z12.00 F3500 
M42 P11 S0 
G1 X-6.70 Y-11.30 Z12.00 F3500 
M42 P11 S255 
G1 X-6.41 Y-11.02 Z12.00 F3500 
M42 P11 S0 
G1 X-6.41 Y-11.02 Z12.00 F3500 
M42 P11 S255 
G1 X-5.29 Y-9.82 Z12.00 F3500 
M42 P11 S0 
G1 X-5.29 Y-9.82 Z12.00 F3500 
M42 P11 S255 
G1 X-5.12 Y-9.62 Z12.00 F3500 
M42 P11 S0 
G1 X-5.12 Y-9.62 Z12.00 F3500 
M42 P11 S255 
G1 X-4.49 Y-8.31 Z12.00 F3500 
M42 P11 S0 
G1 X-4.49 Y-8.31 Z12.00 F3500 
M42 P11 S255 
G1 X-4.45 Y-8.24 Z12.00 F3500 
M42 P11 S0 
G1 X-4.45 Y-8.24 Z12.00 F3500 
M42 P11 S255 
G1 X-4.27 Y-7.72 Z12.00 F3500 
M42 P11 S0 
G1 X-5.21 Y9.20 Z12.00 F3500 
M42 P11 S255 
G1 X-5.30 Y9.29 Z12.00 F3500 
M42 P11 S0 
G1 X-7.19 Y-15.13 Z15.00 F3500 
M42 P11 S255 
G1 X-7.16 Y-15.10 Z15.00 F3500 
M42 P11 S0 
G1 X-7.16 Y-15.10 Z15.00 F3500 
M42 P11 S255 
G1 X-6.07 Y-14.03 Z15.00 F3500 
M42 P11 S0 
G1 X-6.07 Y-14.03 Z15.00 F3500 
M42 P11 S255 
G1 X-4.93 Y-12.78 Z15.00 F3500 
M42 P11 S0 
G1 X-4.93 Y-12.78 Z15.00 F3500 
M42 P11 S255 
G1 X-4.75 Y-12.59 Z15.00 F3500 
M42 P11 S0 
G1 X-4.75 Y-12.59 Z15.00 F3500 
M42 P11 S255 
G1 X-4.68 Y-12.50 Z15.00 F3500 
M42 P11 S0 
G1 X-4.68 Y-12.50 Z15.00 F3500 
M42 P11 S255 
G1 X-3.80 Y-11.58 Z15.00 F3500 
M42 P11 S0 
G1 X-3.80 Y-11.58 Z15.00 F3500 
M42 P11 S255 
G1 X-3.39 Y-11.16 Z15.00 F3500 
M42 P11 S0 
G1 X-3.39 Y-11.16 Z15.00 F3500 
M42 P11 S255 
G1 X-3.34 Y-11.12 Z15.00 F3500 
M42 P11 S0 
G1 X-3.34 Y-11.12 Z15.00 F3500 
M42 P11 S255 
G1 X-2.24 Y-10.07 Z15.00 F3500 
M42 P11 S0 
G1 X-2.24 Y-10.07 Z15.00 F3500 
M42 P11 S255 
G1 X-1.92 Y-9.87 Z15.00 F3500 
M42 P11 S0 
G1 X-1.92 Y-9.87 Z15.00 F3500 
M42 P11 S255 
G1 X-1.11 Y-9.15 Z15.00 F3500 
M42 P11 S0 
G1 X-1.11 Y-9.15 Z15.00 F3500 
M42 P11 S255 
G1 X-0.02 Y-8.57 Z15.00 F3500 
M42 P11 S0 
G1 X-0.02 Y-8.57 Z15.00 F3500 
M42 P11 S255 
G1 X0.22 Y-8.45 Z15.00 F3500 
M42 P11 S0 
G1 X0.22 Y-8.45 Z15.00 F3500 
M42 P11 S255 
G1 X1.76 Y-8.04 Z15.00 F3500 
M42 P11 S0 
G1 X1.76 Y-8.04 Z15.00 F3500 
M42 P11 S255 
G1 X1.85 Y-8.03 Z15.00 F3500 
M42 P11 S0 
G1 X1.85 Y-8.03 Z15.00 F3500 
M42 P11 S255 
G1 X3.16 Y-8.00 Z15.00 F3500 
M42 P11 S0 
G1 X3.16 Y-8.00 Z15.00 F3500 
M42 P11 S255 
G1 X4.32 Y-8.39 Z15.00 F3500 
M42 P11 S0 
G1 X4.32 Y-8.39 Z15.00 F3500 
M42 P11 S255 
G1 X4.65 Y-8.49 Z15.00 F3500 
M42 P11 S0 
G1 X4.65 Y-8.49 Z15.00 F3500 
M42 P11 S255 
G1 X5.77 Y-9.11 Z15.00 F3500 
M42 P11 S0 
G1 X5.77 Y-9.11 Z15.00 F3500 
M42 P11 S255 
G1 X6.63 Y-9.59 Z15.00 F3500 
M42 P11 S0 
G1 X6.63 Y-9.59 Z15.00 F3500 
M42 P11 S255 
G1 X6.95 Y-9.79 Z15.00 F3500 
M42 P11 S0 
G1 X6.95 Y-9.79 Z15.00 F3500 
M42 P11 S255 
G1 X7.35 Y-9.97 Z15.00 F3500 
M42 P11 S0 
G1 X7.35 Y-9.97 Z15.00 F3500 
M42 P11 S255 
G1 X8.02 Y-10.23 Z15.00 F3500 
M42 P11 S0 
G1 X8.02 Y-10.23 Z15.00 F3500 
M42 P11 S255 
G1 X8.85 Y-10.38 Z15.00 F3500 
M42 P11 S0 
G1 X8.85 Y-10.38 Z15.00 F3500 
M42 P11 S255 
G1 X9.08 Y-10.40 Z15.00 F3500 
M42 P11 S0 
G1 X9.08 Y-10.40 Z15.00 F3500 
M42 P11 S255 
G1 X9.21 Y-10.39 Z15.00 F3500 
M42 P11 S0 
G1 X9.21 Y-10.39 Z15.00 F3500 
M42 P11 S255 
G1 X10.16 Y-10.26 Z15.00 F3500 
M42 P11 S0 
G1 X10.16 Y-10.26 Z15.00 F3500 
M42 P11 S255 
G1 X11.12 Y-10.14 Z15.00 F3500 
M42 P11 S0 
G1 X11.12 Y-10.14 Z15.00 F3500 
M42 P11 S255 
G1 X11.36 Y-10.09 Z15.00 F3500 
M42 P11 S0 
G1 X11.36 Y-10.09 Z15.00 F3500 
M42 P11 S255 
G1 X12.49 Y-9.71 Z15.00 F3500 
M42 P11 S0 
G1 X12.49 Y-9.71 Z15.00 F3500 
M42 P11 S255 
G1 X12.54 Y-9.70 Z15.00 F3500 
M42 P11 S0 
G1 X12.54 Y-9.70 Z15.00 F3500 
M42 P11 S255 
G1 X12.54 Y-9.69 Z15.00 F3500 
M42 P11 S0 
G1 X12.54 Y-9.69 Z15.00 F3500 
M42 P11 S255 
G1 X13.68 Y-9.19 Z15.00 F3500 
M42 P11 S0 
G1 X13.68 Y-9.19 Z15.00 F3500 
M42 P11 S255 
G1 X13.75 Y-9.15 Z15.00 F3500 
M42 P11 S0 
G1 X13.75 Y-9.15 Z15.00 F3500 
M42 P11 S255 
G1 X14.70 Y-8.63 Z15.00 F3500 
M42 P11 S0 
G1 X14.70 Y-8.63 Z15.00 F3500 
M42 P11 S255 
G1 X14.77 Y-8.57 Z15.00 F3500 
M42 P11 S0 
G1 X14.77 Y-8.57 Z15.00 F3500 
M42 P11 S255 
G1 X15.51 Y-8.05 Z15.00 F3500 
M42 P11 S0 
G1 X15.51 Y-8.05 Z15.00 F3500 
M42 P11 S255 
G1 X15.65 Y-7.92 Z15.00 F3500 
M42 P11 S0 
G1 X15.65 Y-7.92 Z15.00 F3500 
M42 P11 S255 
G1 X16.13 Y-7.34 Z15.00 F3500 
M42 P11 S0 
G1 X16.13 Y-7.34 Z15.00 F3500 
M42 P11 S255 
G1 X16.27 Y-7.15 Z15.00 F3500 
M42 P11 S0 
G1 X16.27 Y-7.15 Z15.00 F3500 
M42 P11 S255 
G1 X16.57 Y-6.40 Z15.00 F3500 
M42 P11 S0 
G1 X16.57 Y-6.40 Z15.00 F3500 
M42 P11 S255 
G1 X16.60 Y-6.33 Z15.00 F3500 
M42 P11 S0 
G1 X16.60 Y-6.33 Z15.00 F3500 
M42 P11 S255 
G1 X16.61 Y-6.28 Z15.00 F3500 
M42 P11 S0 
G1 X16.61 Y-6.28 Z15.00 F3500 
M42 P11 S255 
G1 X16.81 Y-5.19 Z15.00 F3500 
M42 P11 S0 
G1 X16.81 Y-5.19 Z15.00 F3500 
M42 P11 S255 
G1 X16.91 Y-4.05 Z15.00 F3500 
M42 P11 S0 
G1 X16.91 Y-4.05 Z15.00 F3500 
M42 P11 S255 
G1 X16.95 Y-3.67 Z15.00 F3500 
M42 P11 S0 
G1 X16.95 Y-3.67 Z15.00 F3500 
M42 P11 S255 
G1 X16.99 Y-3.23 Z15.00 F3500 
M42 P11 S0 
G1 X16.99 Y-3.23 Z15.00 F3500 
M42 P11 S255 
G1 X17.08 Y-2.27 Z15.00 F3500 
M42 P11 S0 
G1 X17.08 Y-2.27 Z15.00 F3500 
M42 P11 S255 
G1 X17.06 Y-1.37 Z15.00 F3500 
M42 P11 S0 
G1 X17.06 Y-1.37 Z15.00 F3500 
M42 P11 S255 
G1 X17.07 Y-0.89 Z15.00 F3500 
M42 P11 S0 
G1 X17.07 Y-0.89 Z15.00 F3500 
M42 P11 S255 
G1 X16.91 Y-0.10 Z15.00 F3500 
M42 P11 S0 
G1 X16.91 Y-0.10 Z15.00 F3500 
M42 P11 S255 
G1 X16.80 Y0.32 Z15.00 F3500 
M42 P11 S0 
G1 X16.80 Y0.32 Z15.00 F3500 
M42 P11 S255 
G1 X16.34 Y1.26 Z15.00 F3500 
M42 P11 S0 
G1 X16.34 Y1.26 Z15.00 F3500 
M42 P11 S255 
G1 X16.20 Y1.55 Z15.00 F3500 
M42 P11 S0 
G1 X16.20 Y1.55 Z15.00 F3500 
M42 P11 S255 
G1 X16.16 Y1.61 Z15.00 F3500 
M42 P11 S0 
G1 X16.16 Y1.61 Z15.00 F3500 
M42 P11 S255 
G1 X15.04 Y2.81 Z15.00 F3500 
M42 P11 S0 
G1 X15.04 Y2.81 Z15.00 F3500 
M42 P11 S255 
G1 X14.95 Y2.91 Z15.00 F3500 
M42 P11 S0 
G1 X14.95 Y2.91 Z15.00 F3500 
M42 P11 S255 
G1 X14.65 Y3.14 Z15.00 F3500 
M42 P11 S0 
G1 X14.65 Y3.14 Z15.00 F3500 
M42 P11 S255 
G1 X13.57 Y3.89 Z15.00 F3500 
M42 P11 S0 
G1 X13.57 Y3.89 Z15.00 F3500 
M42 P11 S255 
G1 X12.46 Y4.40 Z15.00 F3500 
M42 P11 S0 
G1 X12.46 Y4.40 Z15.00 F3500 
M42 P11 S255 
G1 X12.18 Y4.53 Z15.00 F3500 
M42 P11 S0 
G1 X12.18 Y4.53 Z15.00 F3500 
M42 P11 S255 
G1 X12.03 Y4.55 Z15.00 F3500 
M42 P11 S0 
G1 X12.03 Y4.55 Z15.00 F3500 
M42 P11 S255 
G1 X10.57 Y4.72 Z15.00 F3500 
M42 P11 S0 
G1 X10.57 Y4.72 Z15.00 F3500 
M42 P11 S255 
G1 X10.53 Y4.71 Z15.00 F3500 
M42 P11 S0 
G1 X10.53 Y4.71 Z15.00 F3500 
M42 P11 S255 
G1 X10.15 Y4.67 Z15.00 F3500 
M42 P11 S0 
G1 X10.15 Y4.67 Z15.00 F3500 
M42 P11 S255 
G1 X9.16 Y4.55 Z15.00 F3500 
M42 P11 S0 
G1 X9.16 Y4.55 Z15.00 F3500 
M42 P11 S255 
G1 X9.05 Y4.53 Z15.00 F3500 
M42 P11 S0 
G1 X9.05 Y4.53 Z15.00 F3500 
M42 P11 S255 
G1 X7.52 Y4.16 Z15.00 F3500 
M42 P11 S0 
G1 X7.52 Y4.16 Z15.00 F3500 
M42 P11 S255 
G1 X7.17 Y4.06 Z15.00 F3500 
M42 P11 S0 
G1 X7.17 Y4.06 Z15.00 F3500 
M42 P11 S255 
G1 X5.45 Y3.61 Z15.00 F3500 
M42 P11 S0 
G1 X5.45 Y3.61 Z15.00 F3500 
M42 P11 S255 
G1 X3.57 Y3.07 Z15.00 F3500 
M42 P11 S0 
G1 X3.57 Y3.07 Z15.00 F3500 
M42 P11 S255 
G1 X3.11 Y2.99 Z15.00 F3500 
M42 P11 S0 
G1 X3.11 Y2.99 Z15.00 F3500 
M42 P11 S255 
G1 X2.79 Y2.98 Z15.00 F3500 
M42 P11 S0 
G1 X2.79 Y2.98 Z15.00 F3500 
M42 P11 S255 
G1 X0.93 Y2.16 Z15.00 F3500 
M42 P11 S0 
G1 X0.93 Y2.16 Z15.00 F3500 
M42 P11 S255 
G1 X0.93 Y2.16 Z15.00 F3500 
M42 P11 S0 
G1 X0.93 Y2.16 Z15.00 F3500 
M42 P11 S255 
G1 X0.93 Y2.16 Z15.00 F3500 
M42 P11 S0 
G1 X0.93 Y2.16 Z15.00 F3500 
M42 P11 S255 
G1 X0.91 Y2.16 Z15.00 F3500 
M42 P11 S0 
G1 X0.91 Y2.16 Z15.00 F3500 
M42 P11 S255 
G1 X-0.25 Y1.73 Z15.00 F3500 
M42 P11 S0 
G1 X-0.25 Y1.73 Z15.00 F3500 
M42 P11 S255 
G1 X-1.10 Y2.12 Z15.00 F3500 
M42 P11 S0 
G1 X-1.10 Y2.12 Z15.00 F3500 
M42 P11 S255 
G1 X-1.29 Y2.27 Z15.00 F3500 
M42 P11 S0 
G1 X-1.29 Y2.27 Z15.00 F3500 
M42 P11 S255 
G1 X-1.97 Y3.36 Z15.00 F3500 
M42 P11 S0 
G1 X-1.97 Y3.36 Z15.00 F3500 
M42 P11 S255 
G1 X-2.22 Y3.84 Z15.00 F3500 
M42 P11 S0 
G1 X-2.22 Y3.84 Z15.00 F3500 
M42 P11 S255 
G1 X-2.38 Y4.45 Z15.00 F3500 
M42 P11 S0 
G1 X-2.38 Y4.45 Z15.00 F3500 
M42 P11 S255 
G1 X-2.64 Y5.74 Z15.00 F3500 
M42 P11 S0 
G1 X-2.64 Y5.74 Z15.00 F3500 
M42 P11 S255 
G1 X-2.64 Y5.78 Z15.00 F3500 
M42 P11 S0 
G1 X-2.64 Y5.78 Z15.00 F3500 
M42 P11 S255 
G1 X-2.67 Y5.96 Z15.00 F3500 
M42 P11 S0 
G1 X-2.67 Y5.96 Z15.00 F3500 
M42 P11 S255 
G1 X-2.75 Y7.27 Z15.00 F3500 
M42 P11 S0 
G1 X-2.75 Y7.27 Z15.00 F3500 
M42 P11 S255 
G1 X-2.82 Y7.96 Z15.00 F3500 
M42 P11 S0 
G1 X-2.82 Y7.96 Z15.00 F3500 
M42 P11 S255 
G1 X-2.94 Y8.74 Z15.00 F3500 
M42 P11 S0 
G1 X-2.94 Y8.74 Z15.00 F3500 
M42 P11 S255 
G1 X-3.46 Y9.83 Z15.00 F3500 
M42 P11 S0 
G1 X-3.46 Y9.83 Z15.00 F3500 
M42 P11 S255 
G1 X-3.61 Y10.05 Z15.00 F3500 
M42 P11 S0 
G1 X-3.61 Y10.05 Z15.00 F3500 
M42 P11 S255 
G1 X-4.42 Y10.76 Z15.00 F3500 
M42 P11 S0 
G1 X-4.42 Y10.76 Z15.00 F3500 
M42 P11 S255 
G1 X-4.57 Y10.92 Z15.00 F3500 
M42 P11 S0 
G1 X-4.57 Y10.92 Z15.00 F3500 
M42 P11 S255 
G1 X-4.89 Y11.14 Z15.00 F3500 
M42 P11 S0 
G1 X-4.89 Y11.14 Z15.00 F3500 
M42 P11 S255 
G1 X-5.61 Y11.69 Z15.00 F3500 
M42 P11 S0 
G1 X-5.61 Y11.69 Z15.00 F3500 
M42 P11 S255 
G1 X-6.07 Y11.87 Z15.00 F3500 
M42 P11 S0 
G1 X-6.07 Y11.87 Z15.00 F3500 
M42 P11 S255 
G1 X-7.09 Y12.50 Z15.00 F3500 
M42 P11 S0 
G1 X-8.00 Y-20.44 Z18.00 F3500 
M42 P11 S255 
G1 X-7.68 Y-20.56 Z18.00 F3500 
M42 P11 S0 
G1 X-7.68 Y-20.56 Z18.00 F3500 
M42 P11 S255 
G1 X-6.65 Y-20.87 Z18.00 F3500 
M42 P11 S0 
G1 X-6.65 Y-20.87 Z18.00 F3500 
M42 P11 S255 
G1 X-5.62 Y-21.23 Z18.00 F3500 
M42 P11 S0 
G1 X-5.62 Y-21.23 Z18.00 F3500 
M42 P11 S255 
G1 X-5.13 Y-21.34 Z18.00 F3500 
M42 P11 S0 
G1 X-5.13 Y-21.34 Z18.00 F3500 
M42 P11 S255 
G1 X-4.93 Y-21.40 Z18.00 F3500 
M42 P11 S0 
G1 X-4.93 Y-21.40 Z18.00 F3500 
M42 P11 S255 
G1 X-3.86 Y-21.60 Z18.00 F3500 
M42 P11 S0 
G1 X-3.86 Y-21.60 Z18.00 F3500 
M42 P11 S255 
G1 X-3.45 Y-21.66 Z18.00 F3500 
M42 P11 S0 
G1 X-3.45 Y-21.66 Z18.00 F3500 
M42 P11 S255 
G1 X-3.36 Y-21.65 Z18.00 F3500 
M42 P11 S0 
G1 X-3.36 Y-21.65 Z18.00 F3500 
M42 P11 S255 
G1 X-2.35 Y-21.39 Z18.00 F3500 
M42 P11 S0 
G1 X-2.35 Y-21.39 Z18.00 F3500 
M42 P11 S255 
G1 X-2.15 Y-21.27 Z18.00 F3500 
M42 P11 S0 
G1 X-2.15 Y-21.27 Z18.00 F3500 
M42 P11 S255 
G1 X-1.68 Y-20.73 Z18.00 F3500 
M42 P11 S0 
G1 X-1.68 Y-20.73 Z18.00 F3500 
M42 P11 S255 
G1 X-1.51 Y-20.52 Z18.00 F3500 
M42 P11 S0 
G1 X-1.51 Y-20.52 Z18.00 F3500 
M42 P11 S255 
G1 X-1.29 Y-19.50 Z18.00 F3500 
M42 P11 S0 
G1 X-1.29 Y-19.50 Z18.00 F3500 
M42 P11 S255 
G1 X-1.19 Y-19.33 Z18.00 F3500 
M42 P11 S0 
G1 X-1.19 Y-19.33 Z18.00 F3500 
M42 P11 S255 
G1 X-1.24 Y-19.05 Z18.00 F3500 
M42 P11 S0 
G1 X-1.24 Y-19.05 Z18.00 F3500 
M42 P11 S255 
G1 X-1.50 Y-17.71 Z18.00 F3500 
M42 P11 S0 
G1 X-1.50 Y-17.71 Z18.00 F3500 
M42 P11 S255 
G1 X-1.85 Y-16.69 Z18.00 F3500 
M42 P11 S0 
G1 X-1.85 Y-16.69 Z18.00 F3500 
M42 P11 S255 
G1 X-1.99 Y-16.07 Z18.00 F3500 
M42 P11 S0 
G1 X-1.99 Y-16.07 Z18.00 F3500 
M42 P11 S255 
G1 X-2.12 Y-15.18 Z18.00 F3500 
M42 P11 S0 
G1 X-2.12 Y-15.18 Z18.00 F3500 
M42 P11 S255 
G1 X-2.06 Y-15.04 Z18.00 F3500 
M42 P11 S0 
G1 X-2.06 Y-15.04 Z18.00 F3500 
M42 P11 S255 
G1 X-1.60 Y-14.28 Z18.00 F3500 
M42 P11 S0 
G1 X-1.60 Y-14.28 Z18.00 F3500 
M42 P11 S255 
G1 X-0.96 Y-13.74 Z18.00 F3500 
M42 P11 S0 
G1 X-0.96 Y-13.74 Z18.00 F3500 
M42 P11 S255 
G1 X-0.29 Y-13.20 Z18.00 F3500 
M42 P11 S0 
G1 X-0.29 Y-13.20 Z18.00 F3500 
M42 P11 S255 
G1 X1.20 Y-12.37 Z18.00 F3500 
M42 P11 S0 
G1 X1.20 Y-12.37 Z18.00 F3500 
M42 P11 S255 
G1 X1.44 Y-12.24 Z18.00 F3500 
M42 P11 S0 
G1 X1.44 Y-12.24 Z18.00 F3500 
M42 P11 S255 
G1 X1.61 Y-12.18 Z18.00 F3500 
M42 P11 S0 
G1 X1.61 Y-12.18 Z18.00 F3500 
M42 P11 S255 
G1 X3.28 Y-11.59 Z18.00 F3500 
M42 P11 S0 
G1 X3.28 Y-11.59 Z18.00 F3500 
M42 P11 S255 
G1 X4.77 Y-11.46 Z18.00 F3500 
M42 P11 S0 
G1 X4.77 Y-11.46 Z18.00 F3500 
M42 P11 S255 
G1 X5.06 Y-11.43 Z18.00 F3500 
M42 P11 S0 
G1 X5.06 Y-11.43 Z18.00 F3500 
M42 P11 S255 
G1 X5.58 Y-11.46 Z18.00 F3500 
M42 P11 S0 
G1 X5.58 Y-11.46 Z18.00 F3500 
M42 P11 S255 
G1 X6.63 Y-11.55 Z18.00 F3500 
M42 P11 S0 
G1 X6.63 Y-11.55 Z18.00 F3500 
M42 P11 S255 
G1 X6.94 Y-11.61 Z18.00 F3500 
M42 P11 S0 
G1 X6.94 Y-11.61 Z18.00 F3500 
M42 P11 S255 
G1 X8.10 Y-11.81 Z18.00 F3500 
M42 P11 S0 
G1 X8.10 Y-11.81 Z18.00 F3500 
M42 P11 S255 
G1 X8.21 Y-11.83 Z18.00 F3500 
M42 P11 S0 
G1 X8.21 Y-11.83 Z18.00 F3500 
M42 P11 S255 
G1 X8.35 Y-11.86 Z18.00 F3500 
M42 P11 S0 
G1 X8.35 Y-11.86 Z18.00 F3500 
M42 P11 S255 
G1 X9.44 Y-12.03 Z18.00 F3500 
M42 P11 S0 
G1 X9.44 Y-12.03 Z18.00 F3500 
M42 P11 S255 
G1 X10.29 Y-12.08 Z18.00 F3500 
M42 P11 S0 
G1 X10.29 Y-12.08 Z18.00 F3500 
M42 P11 S255 
G1 X10.59 Y-12.11 Z18.00 F3500 
M42 P11 S0 
G1 X10.59 Y-12.11 Z18.00 F3500 
M42 P11 S255 
G1 X10.84 Y-12.11 Z18.00 F3500 
M42 P11 S0 
G1 X10.84 Y-12.11 Z18.00 F3500 
M42 P11 S255 
G1 X11.59 Y-12.10 Z18.00 F3500 
M42 P11 S0 
G1 X11.59 Y-12.10 Z18.00 F3500 
M42 P11 S255 
G1 X12.15 Y-12.04 Z18.00 F3500 
M42 P11 S0 
G1 X12.15 Y-12.04 Z18.00 F3500 
M42 P11 S255 
G1 X12.51 Y-12.00 Z18.00 F3500 
M42 P11 S0 
G1 X12.51 Y-12.00 Z18.00 F3500 
M42 P11 S255 
G1 X13.06 Y-11.86 Z18.00 F3500 
M42 P11 S0 
G1 X13.06 Y-11.86 Z18.00 F3500 
M42 P11 S255 
G1 X13.36 Y-11.79 Z18.00 F3500 
M42 P11 S0 
G1 X13.36 Y-11.79 Z18.00 F3500 
M42 P11 S255 
G1 X13.60 Y-11.67 Z18.00 F3500 
M42 P11 S0 
G1 X13.60 Y-11.67 Z18.00 F3500 
M42 P11 S255 
G1 X14.12 Y-11.39 Z18.00 F3500 
M42 P11 S0 
G1 X14.12 Y-11.39 Z18.00 F3500 
M42 P11 S255 
G1 X14.61 Y-11.01 Z18.00 F3500 
M42 P11 S0 
G1 X14.61 Y-11.01 Z18.00 F3500 
M42 P11 S255 
G1 X14.92 Y-10.79 Z18.00 F3500 
M42 P11 S0 
G1 X14.92 Y-10.79 Z18.00 F3500 
M42 P11 S255 
G1 X15.66 Y-10.11 Z18.00 F3500 
M42 P11 S0 
G1 X15.66 Y-10.11 Z18.00 F3500 
M42 P11 S255 
G1 X15.91 Y-9.89 Z18.00 F3500 
M42 P11 S0 
G1 X15.91 Y-9.89 Z18.00 F3500 
M42 P11 S255 
G1 X16.01 Y-9.79 Z18.00 F3500 
M42 P11 S0 
G1 X16.01 Y-9.79 Z18.00 F3500 
M42 P11 S255 
G1 X16.99 Y-8.87 Z18.00 F3500 
M42 P11 S0 
G1 X16.99 Y-8.87 Z18.00 F3500 
M42 P11 S255 
G1 X17.09 Y-8.77 Z18.00 F3500 
M42 P11 S0 
G1 X17.09 Y-8.77 Z18.00 F3500 
M42 P11 S255 
G1 X17.34 Y-8.51 Z18.00 F3500 
M42 P11 S0 
G1 X17.34 Y-8.51 Z18.00 F3500 
M42 P11 S255 
G1 X17.87 Y-8.03 Z18.00 F3500 
M42 P11 S0 
G1 X17.87 Y-8.03 Z18.00 F3500 
M42 P11 S255 
G1 X18.24 Y-7.72 Z18.00 F3500 
M42 P11 S0 
G1 X18.24 Y-7.72 Z18.00 F3500 
M42 P11 S255 
G1 X18.70 Y-7.19 Z18.00 F3500 
M42 P11 S0 
G1 X18.70 Y-7.19 Z18.00 F3500 
M42 P11 S255 
G1 X19.48 Y-6.31 Z18.00 F3500 
M42 P11 S0 
G1 X19.48 Y-6.31 Z18.00 F3500 
M42 P11 S255 
G1 X19.65 Y-5.76 Z18.00 F3500 
M42 P11 S0 
G1 X19.65 Y-5.76 Z18.00 F3500 
M42 P11 S255 
G1 X20.03 Y-4.79 Z18.00 F3500 
M42 P11 S0 
G1 X20.03 Y-4.79 Z18.00 F3500 
M42 P11 S255 
G1 X20.02 Y-4.02 Z18.00 F3500 
M42 P11 S0 
G1 X20.02 Y-4.02 Z18.00 F3500 
M42 P11 S255 
G1 X20.06 Y-2.55 Z18.00 F3500 
M42 P11 S0 
G1 X20.06 Y-2.55 Z18.00 F3500 
M42 P11 S255 
G1 X20.00 Y-1.89 Z18.00 F3500 
M42 P11 S0 
G1 X20.00 Y-1.89 Z18.00 F3500 
M42 P11 S255 
G1 X19.80 Y-0.55 Z18.00 F3500 
M42 P11 S0 
G1 X19.80 Y-0.55 Z18.00 F3500 
M42 P11 S255 
G1 X19.78 Y-0.37 Z18.00 F3500 
M42 P11 S0 
G1 X19.78 Y-0.37 Z18.00 F3500 
M42 P11 S255 
G1 X19.76 Y-0.30 Z18.00 F3500 
M42 P11 S0 
G1 X19.76 Y-0.30 Z18.00 F3500 
M42 P11 S255 
G1 X19.26 Y0.80 Z18.00 F3500 
M42 P11 S0 
G1 X19.26 Y0.80 Z18.00 F3500 
M42 P11 S255 
G1 X18.54 Y1.59 Z18.00 F3500 
M42 P11 S0 
G1 X18.54 Y1.59 Z18.00 F3500 
M42 P11 S255 
G1 X18.53 Y1.60 Z18.00 F3500 
M42 P11 S0 
G1 X18.53 Y1.60 Z18.00 F3500 
M42 P11 S255 
G1 X18.51 Y1.61 Z18.00 F3500 
M42 P11 S0 
G1 X18.51 Y1.61 Z18.00 F3500 
M42 P11 S255 
G1 X17.62 Y2.47 Z18.00 F3500 
M42 P11 S0 
G1 X17.62 Y2.47 Z18.00 F3500 
M42 P11 S255 
G1 X17.26 Y2.97 Z18.00 F3500 
M42 P11 S0 
G1 X17.26 Y2.97 Z18.00 F3500 
M42 P11 S255 
G1 X16.58 Y3.60 Z18.00 F3500 
M42 P11 S0 
G1 X16.58 Y3.60 Z18.00 F3500 
M42 P11 S255 
G1 X16.08 Y4.21 Z18.00 F3500 
M42 P11 S0 
G1 X16.08 Y4.21 Z18.00 F3500 
M42 P11 S255 
G1 X15.37 Y4.75 Z18.00 F3500 
M42 P11 S0 
G1 X15.37 Y4.75 Z18.00 F3500 
M42 P11 S255 
G1 X14.95 Y5.10 Z18.00 F3500 
M42 P11 S0 
G1 X14.95 Y5.10 Z18.00 F3500 
M42 P11 S255 
G1 X14.34 Y5.38 Z18.00 F3500 
M42 P11 S0 
G1 X14.34 Y5.38 Z18.00 F3500 
M42 P11 S255 
G1 X13.49 Y5.76 Z18.00 F3500 
M42 P11 S0 
G1 X13.49 Y5.76 Z18.00 F3500 
M42 P11 S255 
G1 X12.09 Y6.12 Z18.00 F3500 
M42 P11 S0 
G1 X12.09 Y6.12 Z18.00 F3500 
M42 P11 S255 
G1 X11.86 Y6.19 Z18.00 F3500 
M42 P11 S0 
G1 X11.86 Y6.19 Z18.00 F3500 
M42 P11 S255 
G1 X11.41 Y6.25 Z18.00 F3500 
M42 P11 S0 
G1 X11.41 Y6.25 Z18.00 F3500 
M42 P11 S255 
G1 X10.61 Y6.37 Z18.00 F3500 
M42 P11 S0 
G1 X10.61 Y6.37 Z18.00 F3500 
M42 P11 S255 
G1 X9.61 Y6.44 Z18.00 F3500 
M42 P11 S0 
G1 X9.61 Y6.44 Z18.00 F3500 
M42 P11 S255 
G1 X9.49 Y6.46 Z18.00 F3500 
M42 P11 S0 
G1 X9.49 Y6.46 Z18.00 F3500 
M42 P11 S255 
G1 X9.45 Y6.46 Z18.00 F3500 
M42 P11 S0 
G1 X9.45 Y6.46 Z18.00 F3500 
M42 P11 S255 
G1 X8.05 Y6.47 Z18.00 F3500 
M42 P11 S0 
G1 X8.05 Y6.47 Z18.00 F3500 
M42 P11 S255 
G1 X7.87 Y6.50 Z18.00 F3500 
M42 P11 S0 
G1 X7.87 Y6.50 Z18.00 F3500 
M42 P11 S255 
G1 X7.58 Y6.49 Z18.00 F3500 
M42 P11 S0 
G1 X7.58 Y6.49 Z18.00 F3500 
M42 P11 S255 
G1 X6.59 Y6.47 Z18.00 F3500 
M42 P11 S0 
G1 X6.59 Y6.47 Z18.00 F3500 
M42 P11 S255 
G1 X5.84 Y6.68 Z18.00 F3500 
M42 P11 S0 
G1 X5.84 Y6.68 Z18.00 F3500 
M42 P11 S255 
G1 X5.39 Y6.70 Z18.00 F3500 
M42 P11 S0 
G1 X5.39 Y6.70 Z18.00 F3500 
M42 P11 S255 
G1 X4.78 Y7.16 Z18.00 F3500 
M42 P11 S0 
G1 X4.78 Y7.16 Z18.00 F3500 
M42 P11 S255 
G1 X4.30 Y7.69 Z18.00 F3500 
M42 P11 S0 
G1 X4.30 Y7.69 Z18.00 F3500 
M42 P11 S255 
G1 X4.30 Y9.00 Z18.00 F3500 
M42 P11 S0 
G1 X4.30 Y9.00 Z18.00 F3500 
M42 P11 S255 
G1 X4.24 Y9.65 Z18.00 F3500 
M42 P11 S0 
G1 X4.24 Y9.65 Z18.00 F3500 
M42 P11 S255 
G1 X4.35 Y10.82 Z18.00 F3500 
M42 P11 S0 
G1 X4.35 Y10.82 Z18.00 F3500 
M42 P11 S255 
G1 X4.43 Y11.28 Z18.00 F3500 
M42 P11 S0 
G1 X4.43 Y11.28 Z18.00 F3500 
M42 P11 S255 
G1 X4.45 Y11.53 Z18.00 F3500 
M42 P11 S0 
G1 X4.45 Y11.53 Z18.00 F3500 
M42 P11 S255 
G1 X4.40 Y12.58 Z18.00 F3500 
M42 P11 S0 
G1 X4.40 Y12.58 Z18.00 F3500 
M42 P11 S255 
G1 X4.24 Y13.13 Z18.00 F3500 
M42 P11 S0 
G1 X4.24 Y13.13 Z18.00 F3500 
M42 P11 S255 
G1 X4.12 Y14.06 Z18.00 F3500 
M42 P11 S0 
G1 X4.12 Y14.06 Z18.00 F3500 
M42 P11 S255 
G1 X4.03 Y14.25 Z18.00 F3500 
M42 P11 S0 
G1 X4.03 Y14.25 Z18.00 F3500 
M42 P11 S255 
G1 X3.93 Y14.58 Z18.00 F3500 
M42 P11 S0 
G1 X3.93 Y14.58 Z18.00 F3500 
M42 P11 S255 
G1 X3.67 Y15.25 Z18.00 F3500 
M42 P11 S0 
G1 X3.67 Y15.25 Z18.00 F3500 
M42 P11 S255 
G1 X3.47 Y15.67 Z18.00 F3500 
M42 P11 S0 
G1 X3.47 Y15.67 Z18.00 F3500 
M42 P11 S255 
G1 X3.21 Y16.10 Z18.00 F3500 
M42 P11 S0 
G1 X3.21 Y16.10 Z18.00 F3500 
M42 P11 S255 
G1 X2.91 Y16.61 Z18.00 F3500 
M42 P11 S0 
G1 X2.91 Y16.61 Z18.00 F3500 
M42 P11 S255 
G1 X2.68 Y16.86 Z18.00 F3500 
M42 P11 S0 
G1 X2.68 Y16.86 Z18.00 F3500 
M42 P11 S255 
G1 X2.14 Y17.51 Z18.00 F3500 
M42 P11 S0 
G1 X2.14 Y17.51 Z18.00 F3500 
M42 P11 S255 
G1 X1.68 Y17.88 Z18.00 F3500 
M42 P11 S0 
G1 X1.68 Y17.88 Z18.00 F3500 
M42 P11 S255 
G1 X1.32 Y18.16 Z18.00 F3500 
M42 P11 S0 
G1 X1.32 Y18.16 Z18.00 F3500 
M42 P11 S255 
G1 X0.99 Y18.31 Z18.00 F3500 
M42 P11 S0 
G1 X0.99 Y18.31 Z18.00 F3500 
M42 P11 S255 
G1 X0.37 Y18.40 Z18.00 F3500 
M42 P11 S0 
G1 X0.37 Y18.40 Z18.00 F3500 
M42 P11 S255 
G1 X-0.44 Y18.32 Z18.00 F3500 
M42 P11 S0 
G1 X-0.44 Y18.32 Z18.00 F3500 
M42 P11 S255 
G1 X-1.39 Y17.97 Z18.00 F3500 
M42 P11 S0 
G1 X-1.39 Y17.97 Z18.00 F3500 
M42 P11 S255 
G1 X-2.20 Y17.64 Z18.00 F3500 
M42 P11 S0 
G1 X-2.20 Y17.64 Z18.00 F3500 
M42 P11 S255 
G1 X-2.77 Y17.28 Z18.00 F3500 
M42 P11 S0 
G1 X-2.77 Y17.28 Z18.00 F3500 
M42 P11 S255 
G1 X-4.31 Y16.41 Z18.00 F3500 
M42 P11 S0 
G1 X-4.31 Y16.41 Z18.00 F3500 
M42 P11 S255 
G1 X-4.70 Y16.19 Z18.00 F3500 
M42 P11 S0 
G1 X-4.70 Y16.19 Z18.00 F3500 
M42 P11 S255 
G1 X-5.96 Y15.51 Z18.00 F3500 
M42 P11 S0 
G1 X-5.96 Y15.51 Z18.00 F3500 
M42 P11 S255 
G1 X-5.96 Y15.51 Z18.00 F3500 
M42 P11 S0 
G1 X-5.96 Y15.51 Z18.00 F3500 
M42 P11 S255 
G1 X-5.98 Y15.51 Z18.00 F3500 
M42 P11 S0 
G1 X-5.98 Y15.51 Z18.00 F3500 
M42 P11 S255 
G1 X-6.99 Y15.21 Z18.00 F3500 
M42 P11 S0 
G1 X-6.99 Y15.21 Z18.00 F3500 
M42 P11 S255 
G1 X-7.10 Y15.19 Z18.00 F3500 
M42 P11 S0 
G1 X-7.10 Y15.19 Z18.00 F3500 
M42 P11 S255 
G1 X-7.42 Y15.24 Z18.00 F3500 
M42 P11 S0 
G1 X-6.63 Y-23.12 Z21.00 F3500 
M42 P11 S255 
G1 X-6.19 Y-23.32 Z21.00 F3500 
M42 P11 S0 
G1 X-6.19 Y-23.32 Z21.00 F3500 
M42 P11 S255 
G1 X-4.92 Y-23.82 Z21.00 F3500 
M42 P11 S0 
G1 X-4.92 Y-23.82 Z21.00 F3500 
M42 P11 S255 
G1 X-4.06 Y-24.20 Z21.00 F3500 
M42 P11 S0 
G1 X-4.06 Y-24.20 Z21.00 F3500 
M42 P11 S255 
G1 X-3.64 Y-24.28 Z21.00 F3500 
M42 P11 S0 
G1 X-3.64 Y-24.28 Z21.00 F3500 
M42 P11 S255 
G1 X-2.85 Y-24.47 Z21.00 F3500 
M42 P11 S0 
G1 X-2.85 Y-24.47 Z21.00 F3500 
M42 P11 S255 
G1 X-2.07 Y-24.31 Z21.00 F3500 
M42 P11 S0 
G1 X-2.07 Y-24.31 Z21.00 F3500 
M42 P11 S255 
G1 X-2.02 Y-24.30 Z21.00 F3500 
M42 P11 S0 
G1 X-2.02 Y-24.30 Z21.00 F3500 
M42 P11 S255 
G1 X-2.01 Y-24.29 Z21.00 F3500 
M42 P11 S0 
G1 X-2.01 Y-24.29 Z21.00 F3500 
M42 P11 S255 
G1 X-1.97 Y-24.27 Z21.00 F3500 
M42 P11 S0 
G1 X-1.97 Y-24.27 Z21.00 F3500 
M42 P11 S255 
G1 X-1.40 Y-23.83 Z21.00 F3500 
M42 P11 S0 
G1 X-1.40 Y-23.83 Z21.00 F3500 
M42 P11 S255 
G1 X-1.26 Y-23.62 Z21.00 F3500 
M42 P11 S0 
G1 X-1.26 Y-23.62 Z21.00 F3500 
M42 P11 S255 
G1 X-1.12 Y-23.28 Z21.00 F3500 
M42 P11 S0 
G1 X-1.12 Y-23.28 Z21.00 F3500 
M42 P11 S255 
G1 X-1.07 Y-23.01 Z21.00 F3500 
M42 P11 S0 
G1 X-1.07 Y-23.01 Z21.00 F3500 
M42 P11 S255 
G1 X-0.99 Y-22.73 Z21.00 F3500 
M42 P11 S0 
G1 X-0.99 Y-22.73 Z21.00 F3500 
M42 P11 S255 
G1 X-0.92 Y-22.29 Z21.00 F3500 
M42 P11 S0 
G1 X-0.92 Y-22.29 Z21.00 F3500 
M42 P11 S255 
G1 X-0.90 Y-22.19 Z21.00 F3500 
M42 P11 S0 
G1 X-0.90 Y-22.19 Z21.00 F3500 
M42 P11 S255 
G1 X-0.88 Y-22.09 Z21.00 F3500 
M42 P11 S0 
G1 X-0.88 Y-22.09 Z21.00 F3500 
M42 P11 S255 
G1 X-0.75 Y-21.66 Z21.00 F3500 
M42 P11 S0 
G1 X-0.75 Y-21.66 Z21.00 F3500 
M42 P11 S255 
G1 X-0.56 Y-21.37 Z21.00 F3500 
M42 P11 S0 
G1 X-0.56 Y-21.37 Z21.00 F3500 
M42 P11 S255 
G1 X-0.49 Y-21.28 Z21.00 F3500 
M42 P11 S0 
G1 X-0.49 Y-21.28 Z21.00 F3500 
M42 P11 S255 
G1 X-0.25 Y-21.13 Z21.00 F3500 
M42 P11 S0 
G1 X-0.25 Y-21.13 Z21.00 F3500 
M42 P11 S255 
G1 X-0.06 Y-21.02 Z21.00 F3500 
M42 P11 S0 
G1 X-0.06 Y-21.02 Z21.00 F3500 
M42 P11 S255 
G1 X-0.01 Y-20.99 Z21.00 F3500 
M42 P11 S0 
G1 X-0.01 Y-20.99 Z21.00 F3500 
M42 P11 S255 
G1 X0.27 Y-20.87 Z21.00 F3500 
M42 P11 S0 
G1 X0.27 Y-20.87 Z21.00 F3500 
M42 P11 S255 
G1 X0.62 Y-20.73 Z21.00 F3500 
M42 P11 S0 
G1 X0.62 Y-20.73 Z21.00 F3500 
M42 P11 S255 
G1 X0.75 Y-20.68 Z21.00 F3500 
M42 P11 S0 
G1 X0.75 Y-20.68 Z21.00 F3500 
M42 P11 S255 
G1 X1.29 Y-20.37 Z21.00 F3500 
M42 P11 S0 
G1 X1.29 Y-20.37 Z21.00 F3500 
M42 P11 S255 
G1 X1.78 Y-19.98 Z21.00 F3500 
M42 P11 S0 
G1 X1.78 Y-19.98 Z21.00 F3500 
M42 P11 S255 
G1 X2.04 Y-19.82 Z21.00 F3500 
M42 P11 S0 
G1 X2.04 Y-19.82 Z21.00 F3500 
M42 P11 S255 
G1 X2.38 Y-19.54 Z21.00 F3500 
M42 P11 S0 
G1 X2.38 Y-19.54 Z21.00 F3500 
M42 P11 S255 
G1 X2.65 Y-19.24 Z21.00 F3500 
M42 P11 S0 
G1 X2.65 Y-19.24 Z21.00 F3500 
M42 P11 S255 
G1 X3.19 Y-18.52 Z21.00 F3500 
M42 P11 S0 
G1 X3.19 Y-18.52 Z21.00 F3500 
M42 P11 S255 
G1 X3.20 Y-18.46 Z21.00 F3500 
M42 P11 S0 
G1 X3.20 Y-18.46 Z21.00 F3500 
M42 P11 S255 
G1 X3.34 Y-17.81 Z21.00 F3500 
M42 P11 S0 
G1 X3.34 Y-17.81 Z21.00 F3500 
M42 P11 S255 
G1 X3.46 Y-17.20 Z21.00 F3500 
M42 P11 S0 
G1 X3.46 Y-17.20 Z21.00 F3500 
M42 P11 S255 
G1 X3.49 Y-17.14 Z21.00 F3500 
M42 P11 S0 
G1 X3.49 Y-17.14 Z21.00 F3500 
M42 P11 S255 
G1 X3.87 Y-15.80 Z21.00 F3500 
M42 P11 S0 
G1 X3.87 Y-15.80 Z21.00 F3500 
M42 P11 S255 
G1 X3.97 Y-15.43 Z21.00 F3500 
M42 P11 S0 
G1 X3.97 Y-15.43 Z21.00 F3500 
M42 P11 S255 
G1 X3.98 Y-15.40 Z21.00 F3500 
M42 P11 S0 
G1 X3.98 Y-15.40 Z21.00 F3500 
M42 P11 S255 
G1 X4.00 Y-15.38 Z21.00 F3500 
M42 P11 S0 
G1 X4.00 Y-15.38 Z21.00 F3500 
M42 P11 S255 
G1 X4.82 Y-14.61 Z21.00 F3500 
M42 P11 S0 
G1 X4.82 Y-14.61 Z21.00 F3500 
M42 P11 S255 
G1 X4.94 Y-14.58 Z21.00 F3500 
M42 P11 S0 
G1 X4.94 Y-14.58 Z21.00 F3500 
M42 P11 S255 
G1 X5.86 Y-14.30 Z21.00 F3500 
M42 P11 S0 
G1 X5.86 Y-14.30 Z21.00 F3500 
M42 P11 S255 
G1 X5.91 Y-14.29 Z21.00 F3500 
M42 P11 S0 
G1 X5.91 Y-14.29 Z21.00 F3500 
M42 P11 S255 
G1 X6.85 Y-14.18 Z21.00 F3500 
M42 P11 S0 
G1 X6.85 Y-14.18 Z21.00 F3500 
M42 P11 S255 
G1 X8.07 Y-13.95 Z21.00 F3500 
M42 P11 S0 
G1 X8.07 Y-13.95 Z21.00 F3500 
M42 P11 S255 
G1 X8.30 Y-13.94 Z21.00 F3500 
M42 P11 S0 
G1 X8.30 Y-13.94 Z21.00 F3500 
M42 P11 S255 
G1 X8.71 Y-13.88 Z21.00 F3500 
M42 P11 S0 
G1 X8.71 Y-13.88 Z21.00 F3500 
M42 P11 S255 
G1 X9.79 Y-13.72 Z21.00 F3500 
M42 P11 S0 
G1 X9.79 Y-13.72 Z21.00 F3500 
M42 P11 S255 
G1 X10.06 Y-13.65 Z21.00 F3500 
M42 P11 S0 
G1 X10.06 Y-13.65 Z21.00 F3500 
M42 P11 S255 
G1 X11.34 Y-13.56 Z21.00 F3500 
M42 P11 S0 
G1 X11.34 Y-13.56 Z21.00 F3500 
M42 P11 S255 
G1 X11.94 Y-13.43 Z21.00 F3500 
M42 P11 S0 
G1 X11.94 Y-13.43 Z21.00 F3500 
M42 P11 S255 
G1 X12.92 Y-13.31 Z21.00 F3500 
M42 P11 S0 
G1 X12.92 Y-13.31 Z21.00 F3500 
M42 P11 S255 
G1 X14.21 Y-12.96 Z21.00 F3500 
M42 P11 S0 
G1 X14.21 Y-12.96 Z21.00 F3500 
M42 P11 S255 
G1 X14.42 Y-12.91 Z21.00 F3500 
M42 P11 S0 
G1 X14.42 Y-12.91 Z21.00 F3500 
M42 P11 S255 
G1 X14.55 Y-12.86 Z21.00 F3500 
M42 P11 S0 
G1 X14.55 Y-12.86 Z21.00 F3500 
M42 P11 S255 
G1 X15.69 Y-12.43 Z21.00 F3500 
M42 P11 S0 
G1 X15.69 Y-12.43 Z21.00 F3500 
M42 P11 S255 
G1 X16.09 Y-12.28 Z21.00 F3500 
M42 P11 S0 
G1 X16.09 Y-12.28 Z21.00 F3500 
M42 P11 S255 
G1 X16.18 Y-12.24 Z21.00 F3500 
M42 P11 S0 
G1 X16.18 Y-12.24 Z21.00 F3500 
M42 P11 S255 
G1 X17.70 Y-11.44 Z21.00 F3500 
M42 P11 S0 
G1 X17.70 Y-11.44 Z21.00 F3500 
M42 P11 S255 
G1 X19.02 Y-10.87 Z21.00 F3500 
M42 P11 S0 
G1 X19.02 Y-10.87 Z21.00 F3500 
M42 P11 S255 
G1 X19.30 Y-10.70 Z21.00 F3500 
M42 P11 S0 
G1 X19.30 Y-10.70 Z21.00 F3500 
M42 P11 S255 
G1 X19.54 Y-10.57 Z21.00 F3500 
M42 P11 S0 
G1 X19.54 Y-10.57 Z21.00 F3500 
M42 P11 S255 
G1 X20.66 Y-9.87 Z21.00 F3500 
M42 P11 S0 
G1 X20.66 Y-9.87 Z21.00 F3500 
M42 P11 S255 
G1 X21.32 Y-9.37 Z21.00 F3500 
M42 P11 S0 
G1 X21.32 Y-9.37 Z21.00 F3500 
M42 P11 S255 
G1 X21.70 Y-9.06 Z21.00 F3500 
M42 P11 S0 
G1 X21.70 Y-9.06 Z21.00 F3500 
M42 P11 S255 
G1 X22.27 Y-8.48 Z21.00 F3500 
M42 P11 S0 
G1 X22.27 Y-8.48 Z21.00 F3500 
M42 P11 S255 
G1 X22.49 Y-8.24 Z21.00 F3500 
M42 P11 S0 
G1 X22.49 Y-8.24 Z21.00 F3500 
M42 P11 S255 
G1 X22.73 Y-7.85 Z21.00 F3500 
M42 P11 S0 
G1 X22.73 Y-7.85 Z21.00 F3500 
M42 P11 S255 
G1 X23.11 Y-7.20 Z21.00 F3500 
M42 P11 S0 
G1 X23.11 Y-7.20 Z21.00 F3500 
M42 P11 S255 
G1 X23.15 Y-7.08 Z21.00 F3500 
M42 P11 S0 
G1 X23.15 Y-7.08 Z21.00 F3500 
M42 P11 S255 
G1 X23.30 Y-6.70 Z21.00 F3500 
M42 P11 S0 
G1 X23.30 Y-6.70 Z21.00 F3500 
M42 P11 S255 
G1 X23.42 Y-6.32 Z21.00 F3500 
M42 P11 S0 
G1 X23.42 Y-6.32 Z21.00 F3500 
M42 P11 S255 
G1 X23.45 Y-6.08 Z21.00 F3500 
M42 P11 S0 
G1 X23.45 Y-6.08 Z21.00 F3500 
M42 P11 S255 
G1 X23.46 Y-5.54 Z21.00 F3500 
M42 P11 S0 
G1 X23.46 Y-5.54 Z21.00 F3500 
M42 P11 S255 
G1 X23.47 Y-5.28 Z21.00 F3500 
M42 P11 S0 
G1 X23.47 Y-5.28 Z21.00 F3500 
M42 P11 S255 
G1 X23.43 Y-4.43 Z21.00 F3500 
M42 P11 S0 
G1 X23.43 Y-4.43 Z21.00 F3500 
M42 P11 S255 
G1 X23.52 Y-3.56 Z21.00 F3500 
M42 P11 S0 
G1 X23.52 Y-3.56 Z21.00 F3500 
M42 P11 S255 
G1 X23.49 Y-3.09 Z21.00 F3500 
M42 P11 S0 
G1 X23.49 Y-3.09 Z21.00 F3500 
M42 P11 S255 
G1 X23.58 Y-1.66 Z21.00 F3500 
M42 P11 S0 
G1 X23.58 Y-1.66 Z21.00 F3500 
M42 P11 S255 
G1 X23.57 Y-1.52 Z21.00 F3500 
M42 P11 S0 
G1 X23.57 Y-1.52 Z21.00 F3500 
M42 P11 S255 
G1 X23.52 Y-0.80 Z21.00 F3500 
M42 P11 S0 
G1 X23.52 Y-0.80 Z21.00 F3500 
M42 P11 S255 
G1 X23.48 Y-0.21 Z21.00 F3500 
M42 P11 S0 
G1 X23.48 Y-0.21 Z21.00 F3500 
M42 P11 S255 
G1 X23.45 Y-0.14 Z21.00 F3500 
M42 P11 S0 
G1 X23.45 Y-0.14 Z21.00 F3500 
M42 P11 S255 
G1 X23.39 Y0.01 Z21.00 F3500 
M42 P11 S0 
G1 X23.39 Y0.01 Z21.00 F3500 
M42 P11 S255 
G1 X22.98 Y0.81 Z21.00 F3500 
M42 P11 S0 
G1 X22.98 Y0.81 Z21.00 F3500 
M42 P11 S255 
G1 X22.36 Y1.81 Z21.00 F3500 
M42 P11 S0 
G1 X22.36 Y1.81 Z21.00 F3500 
M42 P11 S255 
G1 X22.25 Y1.94 Z21.00 F3500 
M42 P11 S0 
G1 X22.25 Y1.94 Z21.00 F3500 
M42 P11 S255 
G1 X22.21 Y1.99 Z21.00 F3500 
M42 P11 S0 
G1 X22.21 Y1.99 Z21.00 F3500 
M42 P11 S255 
G1 X21.94 Y2.28 Z21.00 F3500 
M42 P11 S0 
G1 X21.94 Y2.28 Z21.00 F3500 
M42 P11 S255 
G1 X21.11 Y3.13 Z21.00 F3500 
M42 P11 S0 
G1 X21.11 Y3.13 Z21.00 F3500 
M42 P11 S255 
G1 X20.88 Y3.33 Z21.00 F3500 
M42 P11 S0 
G1 X20.88 Y3.33 Z21.00 F3500 
M42 P11 S255 
G1 X19.92 Y4.04 Z21.00 F3500 
M42 P11 S0 
G1 X19.92 Y4.04 Z21.00 F3500 
M42 P11 S255 
G1 X19.32 Y4.49 Z21.00 F3500 
M42 P11 S0 
G1 X19.32 Y4.49 Z21.00 F3500 
M42 P11 S255 
G1 X18.86 Y4.77 Z21.00 F3500 
M42 P11 S0 
G1 X18.86 Y4.77 Z21.00 F3500 
M42 P11 S255 
G1 X17.74 Y5.41 Z21.00 F3500 
M42 P11 S0 
G1 X17.74 Y5.41 Z21.00 F3500 
M42 P11 S255 
G1 X17.72 Y5.42 Z21.00 F3500 
M42 P11 S0 
G1 X17.72 Y5.42 Z21.00 F3500 
M42 P11 S255 
G1 X17.71 Y5.42 Z21.00 F3500 
M42 P11 S0 
G1 X17.71 Y5.42 Z21.00 F3500 
M42 P11 S255 
G1 X16.59 Y5.96 Z21.00 F3500 
M42 P11 S0 
G1 X16.59 Y5.96 Z21.00 F3500 
M42 P11 S255 
G1 X15.50 Y6.54 Z21.00 F3500 
M42 P11 S0 
G1 X15.50 Y6.54 Z21.00 F3500 
M42 P11 S255 
G1 X15.00 Y6.84 Z21.00 F3500 
M42 P11 S0 
G1 X15.00 Y6.84 Z21.00 F3500 
M42 P11 S255 
G1 X14.30 Y7.16 Z21.00 F3500 
M42 P11 S0 
G1 X14.30 Y7.16 Z21.00 F3500 
M42 P11 S255 
G1 X13.22 Y7.74 Z21.00 F3500 
M42 P11 S0 
G1 X13.22 Y7.74 Z21.00 F3500 
M42 P11 S255 
G1 X11.84 Y8.43 Z21.00 F3500 
M42 P11 S0 
G1 X11.84 Y8.43 Z21.00 F3500 
M42 P11 S255 
G1 X11.68 Y8.48 Z21.00 F3500 
M42 P11 S0 
G1 X11.68 Y8.48 Z21.00 F3500 
M42 P11 S255 
G1 X11.51 Y8.55 Z21.00 F3500 
M42 P11 S0 
G1 X11.51 Y8.55 Z21.00 F3500 
M42 P11 S255 
G1 X10.38 Y9.07 Z21.00 F3500 
M42 P11 S0 
G1 X10.38 Y9.07 Z21.00 F3500 
M42 P11 S255 
G1 X9.60 Y9.50 Z21.00 F3500 
M42 P11 S0 
G1 X9.60 Y9.50 Z21.00 F3500 
M42 P11 S255 
G1 X9.29 Y9.66 Z21.00 F3500 
M42 P11 S0 
G1 X9.29 Y9.66 Z21.00 F3500 
M42 P11 S255 
G1 X8.47 Y10.25 Z21.00 F3500 
M42 P11 S0 
G1 X8.47 Y10.25 Z21.00 F3500 
M42 P11 S255 
G1 X8.30 Y10.35 Z21.00 F3500 
M42 P11 S0 
G1 X8.30 Y10.35 Z21.00 F3500 
M42 P11 S255 
G1 X7.61 Y11.08 Z21.00 F3500 
M42 P11 S0 
G1 X7.61 Y11.08 Z21.00 F3500 
M42 P11 S255 
G1 X7.51 Y11.15 Z21.00 F3500 
M42 P11 S0 
G1 X7.51 Y11.15 Z21.00 F3500 
M42 P11 S255 
G1 X7.29 Y11.47 Z21.00 F3500 
M42 P11 S0 
G1 X7.29 Y11.47 Z21.00 F3500 
M42 P11 S255 
G1 X6.95 Y11.92 Z21.00 F3500 
M42 P11 S0 
G1 X6.95 Y11.92 Z21.00 F3500 
M42 P11 S255 
G1 X6.88 Y12.10 Z21.00 F3500 
M42 P11 S0 
G1 X6.88 Y12.10 Z21.00 F3500 
M42 P11 S255 
G1 X6.53 Y12.58 Z21.00 F3500 
M42 P11 S0 
G1 X6.53 Y12.58 Z21.00 F3500 
M42 P11 S255 
G1 X6.24 Y13.05 Z21.00 F3500 
M42 P11 S0 
G1 X6.24 Y13.05 Z21.00 F3500 
M42 P11 S255 
G1 X6.17 Y13.16 Z21.00 F3500 
M42 P11 S0 
G1 X6.17 Y13.16 Z21.00 F3500 
M42 P11 S255 
G1 X6.07 Y13.29 Z21.00 F3500 
M42 P11 S0 
G1 X6.07 Y13.29 Z21.00 F3500 
M42 P11 S255 
G1 X5.65 Y13.65 Z21.00 F3500 
M42 P11 S0 
G1 X5.65 Y13.65 Z21.00 F3500 
M42 P11 S255 
G1 X5.12 Y14.08 Z21.00 F3500 
M42 P11 S0 
G1 X5.12 Y14.08 Z21.00 F3500 
M42 P11 S255 
G1 X5.05 Y14.13 Z21.00 F3500 
M42 P11 S0 
G1 X5.05 Y14.13 Z21.00 F3500 
M42 P11 S255 
G1 X5.01 Y14.17 Z21.00 F3500 
M42 P11 S0 
G1 X5.01 Y14.17 Z21.00 F3500 
M42 P11 S255 
G1 X4.39 Y14.46 Z21.00 F3500 
M42 P11 S0 
G1 X4.39 Y14.46 Z21.00 F3500 
M42 P11 S255 
G1 X3.93 Y14.70 Z21.00 F3500 
M42 P11 S0 
G1 X3.93 Y14.70 Z21.00 F3500 
M42 P11 S255 
G1 X3.90 Y14.72 Z21.00 F3500 
M42 P11 S0 
G1 X3.90 Y14.72 Z21.00 F3500 
M42 P11 S255 
G1 X3.80 Y14.80 Z21.00 F3500 
M42 P11 S0 
G1 X3.80 Y14.80 Z21.00 F3500 
M42 P11 S255 
G1 X3.41 Y15.12 Z21.00 F3500 
M42 P11 S0 
G1 X3.41 Y15.12 Z21.00 F3500 
M42 P11 S255 
G1 X3.35 Y15.18 Z21.00 F3500 
M42 P11 S0 
G1 X3.35 Y15.18 Z21.00 F3500 
M42 P11 S255 
G1 X2.94 Y15.81 Z21.00 F3500 
M42 P11 S0 
G1 X2.94 Y15.81 Z21.00 F3500 
M42 P11 S255 
G1 X2.87 Y15.94 Z21.00 F3500 
M42 P11 S0 
G1 X2.87 Y15.94 Z21.00 F3500 
M42 P11 S255 
G1 X2.62 Y16.66 Z21.00 F3500 
M42 P11 S0 
G1 X2.62 Y16.66 Z21.00 F3500 
M42 P11 S255 
G1 X2.62 Y16.68 Z21.00 F3500 
M42 P11 S0 
G1 X2.62 Y16.68 Z21.00 F3500 
M42 P11 S255 
G1 X2.61 Y16.73 Z21.00 F3500 
M42 P11 S0 
G1 X2.61 Y16.73 Z21.00 F3500 
M42 P11 S255 
G1 X2.57 Y17.28 Z21.00 F3500 
M42 P11 S0 
G1 X2.57 Y17.28 Z21.00 F3500 
M42 P11 S255 
G1 X2.62 Y17.81 Z21.00 F3500 
M42 P11 S0 
G1 X2.62 Y17.81 Z21.00 F3500 
M42 P11 S255 
G1 X2.63 Y17.92 Z21.00 F3500 
M42 P11 S0 
G1 X2.63 Y17.92 Z21.00 F3500 
M42 P11 S255 
G1 X2.68 Y18.34 Z21.00 F3500 
M42 P11 S0 
G1 X2.68 Y18.34 Z21.00 F3500 
M42 P11 S255 
G1 X2.69 Y18.55 Z21.00 F3500 
M42 P11 S0 
G1 X2.69 Y18.55 Z21.00 F3500 
M42 P11 S255 
G1 X2.54 Y19.21 Z21.00 F3500 
M42 P11 S0 
G1 X2.54 Y19.21 Z21.00 F3500 
M42 P11 S255 
G1 X2.53 Y19.22 Z21.00 F3500 
M42 P11 S0 
G1 X2.53 Y19.22 Z21.00 F3500 
M42 P11 S255 
G1 X2.07 Y19.75 Z21.00 F3500 
M42 P11 S0 
G1 X2.07 Y19.75 Z21.00 F3500 
M42 P11 S255 
G1 X1.78 Y19.92 Z21.00 F3500 
M42 P11 S0 
G1 X1.78 Y19.92 Z21.00 F3500 
M42 P11 S255 
G1 X1.41 Y20.08 Z21.00 F3500 
M42 P11 S0 
G1 X1.41 Y20.08 Z21.00 F3500 
M42 P11 S255 
G1 X0.81 Y20.16 Z21.00 F3500 
M42 P11 S0 
G1 X0.81 Y20.16 Z21.00 F3500 
M42 P11 S255 
G1 X0.59 Y20.20 Z21.00 F3500 
M42 P11 S0 
G1 X0.59 Y20.20 Z21.00 F3500 
M42 P11 S255 
G1 X0.46 Y20.20 Z21.00 F3500 
M42 P11 S0 
G1 X0.46 Y20.20 Z21.00 F3500 
M42 P11 S255 
G1 X-0.40 Y20.05 Z21.00 F3500 
M42 P11 S0 
G1 X-0.40 Y20.05 Z21.00 F3500 
M42 P11 S255 
G1 X-0.84 Y19.92 Z21.00 F3500 
M42 P11 S0 
G1 X-0.84 Y19.92 Z21.00 F3500 
M42 P11 S255 
G1 X-2.10 Y19.42 Z21.00 F3500 
M42 P11 S0 
G1 X-2.10 Y19.42 Z21.00 F3500 
M42 P11 S255 
G1 X-2.13 Y19.40 Z21.00 F3500 
M42 P11 S0 
G1 X-2.13 Y19.40 Z21.00 F3500 
M42 P11 S255 
G1 X-2.15 Y19.39 Z21.00 F3500 
M42 P11 S0 
G1 X-2.15 Y19.39 Z21.00 F3500 
M42 P11 S255 
G1 X-2.50 Y19.22 Z21.00 F3500 
M42 P11 S0 
G1 X-2.50 Y19.22 Z21.00 F3500 
M42 P11 S255 
G1 X-3.35 Y18.81 Z21.00 F3500 
M42 P11 S0 
G1 X-3.35 Y18.81 Z21.00 F3500 
M42 P11 S255 
G1 X-3.41 Y18.78 Z21.00 F3500 
M42 P11 S0 
G1 X-3.41 Y18.78 Z21.00 F3500 
M42 P11 S255 
G1 X-4.22 Y18.34 Z21.00 F3500 
M42 P11 S0 
G1 X-4.22 Y18.34 Z21.00 F3500 
M42 P11 S255 
G1 X-5.25 Y18.00 Z21.00 F3500 
M42 P11 S0 
G1 X-5.25 Y18.00 Z21.00 F3500 
M42 P11 S255 
G1 X-5.55 Y17.86 Z21.00 F3500 
M42 P11 S0 
G1 X-5.55 Y17.86 Z21.00 F3500 
M42 P11 S255 
G1 X-6.03 Y17.76 Z21.00 F3500 
M42 P11 S0 
G1 X-6.03 Y17.76 Z21.00 F3500 
M42 P11 S255 
G1 X-7.26 Y17.58 Z21.00 F3500 
M42 P11 S0 
G1 X-9.70 Y-23.68 Z24.00 F3500 
M42 P11 S255 
G1 X-8.35 Y-23.97 Z24.00 F3500 
M42 P11 S0 
G1 X-8.35 Y-23.97 Z24.00 F3500 
M42 P11 S255 
G1 X-8.20 Y-24.00 Z24.00 F3500 
M42 P11 S0 
G1 X-8.20 Y-24.00 Z24.00 F3500 
M42 P11 S255 
G1 X-7.15 Y-24.29 Z24.00 F3500 
M42 P11 S0 
G1 X-7.15 Y-24.29 Z24.00 F3500 
M42 P11 S255 
G1 X-6.74 Y-24.38 Z24.00 F3500 
M42 P11 S0 
G1 X-6.74 Y-24.38 Z24.00 F3500 
M42 P11 S255 
G1 X-5.63 Y-24.82 Z24.00 F3500 
M42 P11 S0 
G1 X-5.63 Y-24.82 Z24.00 F3500 
M42 P11 S255 
G1 X-5.16 Y-25.01 Z24.00 F3500 
M42 P11 S0 
G1 X-5.16 Y-25.01 Z24.00 F3500 
M42 P11 S255 
G1 X-4.90 Y-25.12 Z24.00 F3500 
M42 P11 S0 
G1 X-4.90 Y-25.12 Z24.00 F3500 
M42 P11 S255 
G1 X-3.42 Y-25.68 Z24.00 F3500 
M42 P11 S0 
G1 X-3.42 Y-25.68 Z24.00 F3500 
M42 P11 S255 
G1 X-3.15 Y-25.76 Z24.00 F3500 
M42 P11 S0 
G1 X-3.15 Y-25.76 Z24.00 F3500 
M42 P11 S255 
G1 X-2.32 Y-25.92 Z24.00 F3500 
M42 P11 S0 
G1 X-2.32 Y-25.92 Z24.00 F3500 
M42 P11 S255 
G1 X-2.21 Y-25.95 Z24.00 F3500 
M42 P11 S0 
G1 X-2.21 Y-25.95 Z24.00 F3500 
M42 P11 S255 
G1 X-1.57 Y-25.93 Z24.00 F3500 
M42 P11 S0 
G1 X-1.57 Y-25.93 Z24.00 F3500 
M42 P11 S255 
G1 X-1.32 Y-25.92 Z24.00 F3500 
M42 P11 S0 
G1 X-1.32 Y-25.92 Z24.00 F3500 
M42 P11 S255 
G1 X-1.30 Y-25.92 Z24.00 F3500 
M42 P11 S0 
G1 X-1.30 Y-25.92 Z24.00 F3500 
M42 P11 S255 
G1 X-0.56 Y-25.58 Z24.00 F3500 
M42 P11 S0 
G1 X-0.56 Y-25.58 Z24.00 F3500 
M42 P11 S255 
G1 X-0.42 Y-25.46 Z24.00 F3500 
M42 P11 S0 
G1 X-0.42 Y-25.46 Z24.00 F3500 
M42 P11 S255 
G1 X-0.14 Y-25.08 Z24.00 F3500 
M42 P11 S0 
G1 X-0.14 Y-25.08 Z24.00 F3500 
M42 P11 S255 
G1 X0.01 Y-24.62 Z24.00 F3500 
M42 P11 S0 
G1 X0.01 Y-24.62 Z24.00 F3500 
M42 P11 S255 
G1 X0.03 Y-24.52 Z24.00 F3500 
M42 P11 S0 
G1 X0.03 Y-24.52 Z24.00 F3500 
M42 P11 S255 
G1 X0.02 Y-23.82 Z24.00 F3500 
M42 P11 S0 
G1 X0.02 Y-23.82 Z24.00 F3500 
M42 P11 S255 
G1 X0.02 Y-23.76 Z24.00 F3500 
M42 P11 S0 
G1 X0.02 Y-23.76 Z24.00 F3500 
M42 P11 S255 
G1 X0.02 Y-23.76 Z24.00 F3500 
M42 P11 S0 
G1 X0.02 Y-23.76 Z24.00 F3500 
M42 P11 S255 
G1 X0.02 Y-23.74 Z24.00 F3500 
M42 P11 S0 
G1 X0.02 Y-23.74 Z24.00 F3500 
M42 P11 S255 
G1 X0.01 Y-23.02 Z24.00 F3500 
M42 P11 S0 
G1 X0.01 Y-23.02 Z24.00 F3500 
M42 P11 S255 
G1 X0.03 Y-22.61 Z24.00 F3500 
M42 P11 S0 
G1 X0.03 Y-22.61 Z24.00 F3500 
M42 P11 S255 
G1 X0.07 Y-22.48 Z24.00 F3500 
M42 P11 S0 
G1 X0.07 Y-22.48 Z24.00 F3500 
M42 P11 S255 
G1 X0.18 Y-22.30 Z24.00 F3500 
M42 P11 S0 
G1 X0.18 Y-22.30 Z24.00 F3500 
M42 P11 S255 
G1 X0.36 Y-22.17 Z24.00 F3500 
M42 P11 S0 
G1 X0.36 Y-22.17 Z24.00 F3500 
M42 P11 S255 
G1 X0.60 Y-22.01 Z24.00 F3500 
M42 P11 S0 
G1 X0.60 Y-22.01 Z24.00 F3500 
M42 P11 S255 
G1 X1.46 Y-21.44 Z24.00 F3500 
M42 P11 S0 
G1 X1.46 Y-21.44 Z24.00 F3500 
M42 P11 S255 
G1 X1.51 Y-21.42 Z24.00 F3500 
M42 P11 S0 
G1 X1.51 Y-21.42 Z24.00 F3500 
M42 P11 S255 
G1 X1.58 Y-21.36 Z24.00 F3500 
M42 P11 S0 
G1 X1.58 Y-21.36 Z24.00 F3500 
M42 P11 S255 
G1 X2.52 Y-20.74 Z24.00 F3500 
M42 P11 S0 
G1 X2.52 Y-20.74 Z24.00 F3500 
M42 P11 S255 
G1 X3.00 Y-20.26 Z24.00 F3500 
M42 P11 S0 
G1 X3.00 Y-20.26 Z24.00 F3500 
M42 P11 S255 
G1 X3.28 Y-20.05 Z24.00 F3500 
M42 P11 S0 
G1 X3.28 Y-20.05 Z24.00 F3500 
M42 P11 S255 
G1 X3.84 Y-19.51 Z24.00 F3500 
M42 P11 S0 
G1 X3.84 Y-19.51 Z24.00 F3500 
M42 P11 S255 
G1 X3.94 Y-19.43 Z24.00 F3500 
M42 P11 S0 
G1 X3.94 Y-19.43 Z24.00 F3500 
M42 P11 S255 
G1 X4.01 Y-19.35 Z24.00 F3500 
M42 P11 S0 
G1 X4.01 Y-19.35 Z24.00 F3500 
M42 P11 S255 
G1 X4.61 Y-18.91 Z24.00 F3500 
M42 P11 S0 
G1 X4.61 Y-18.91 Z24.00 F3500 
M42 P11 S255 
G1 X4.89 Y-18.67 Z24.00 F3500 
M42 P11 S0 
G1 X4.89 Y-18.67 Z24.00 F3500 
M42 P11 S255 
G1 X5.27 Y-18.34 Z24.00 F3500 
M42 P11 S0 
G1 X5.27 Y-18.34 Z24.00 F3500 
M42 P11 S255 
G1 X5.72 Y-18.00 Z24.00 F3500 
M42 P11 S0 
G1 X5.72 Y-18.00 Z24.00 F3500 
M42 P11 S255 
G1 X5.91 Y-17.85 Z24.00 F3500 
M42 P11 S0 
G1 X5.91 Y-17.85 Z24.00 F3500 
M42 P11 S255 
G1 X6.26 Y-17.66 Z24.00 F3500 
M42 P11 S0 
G1 X6.26 Y-17.66 Z24.00 F3500 
M42 P11 S255 
G1 X6.54 Y-17.49 Z24.00 F3500 
M42 P11 S0 
G1 X6.54 Y-17.49 Z24.00 F3500 
M42 P11 S255 
G1 X6.78 Y-17.40 Z24.00 F3500 
M42 P11 S0 
G1 X6.78 Y-17.40 Z24.00 F3500 
M42 P11 S255 
G1 X7.13 Y-17.23 Z24.00 F3500 
M42 P11 S0 
G1 X7.13 Y-17.23 Z24.00 F3500 
M42 P11 S255 
G1 X7.32 Y-17.14 Z24.00 F3500 
M42 P11 S0 
G1 X7.32 Y-17.14 Z24.00 F3500 
M42 P11 S255 
G1 X7.65 Y-16.97 Z24.00 F3500 
M42 P11 S0 
G1 X7.65 Y-16.97 Z24.00 F3500 
M42 P11 S255 
G1 X7.93 Y-16.81 Z24.00 F3500 
M42 P11 S0 
G1 X7.93 Y-16.81 Z24.00 F3500 
M42 P11 S255 
G1 X8.61 Y-16.47 Z24.00 F3500 
M42 P11 S0 
G1 X8.61 Y-16.47 Z24.00 F3500 
M42 P11 S255 
G1 X8.78 Y-16.38 Z24.00 F3500 
M42 P11 S0 
G1 X8.78 Y-16.38 Z24.00 F3500 
M42 P11 S255 
G1 X9.31 Y-16.16 Z24.00 F3500 
M42 P11 S0 
G1 X9.31 Y-16.16 Z24.00 F3500 
M42 P11 S255 
G1 X9.84 Y-15.91 Z24.00 F3500 
M42 P11 S0 
G1 X9.84 Y-15.91 Z24.00 F3500 
M42 P11 S255 
G1 X10.02 Y-15.86 Z24.00 F3500 
M42 P11 S0 
G1 X10.02 Y-15.86 Z24.00 F3500 
M42 P11 S255 
G1 X10.86 Y-15.56 Z24.00 F3500 
M42 P11 S0 
G1 X10.86 Y-15.56 Z24.00 F3500 
M42 P11 S255 
G1 X11.22 Y-15.45 Z24.00 F3500 
M42 P11 S0 
G1 X11.22 Y-15.45 Z24.00 F3500 
M42 P11 S255 
G1 X11.73 Y-15.31 Z24.00 F3500 
M42 P11 S0 
G1 X11.73 Y-15.31 Z24.00 F3500 
M42 P11 S255 
G1 X12.58 Y-15.09 Z24.00 F3500 
M42 P11 S0 
G1 X12.58 Y-15.09 Z24.00 F3500 
M42 P11 S255 
G1 X12.65 Y-15.06 Z24.00 F3500 
M42 P11 S0 
G1 X12.65 Y-15.06 Z24.00 F3500 
M42 P11 S255 
G1 X12.70 Y-15.05 Z24.00 F3500 
M42 P11 S0 
G1 X12.70 Y-15.05 Z24.00 F3500 
M42 P11 S255 
G1 X13.83 Y-14.75 Z24.00 F3500 
M42 P11 S0 
G1 X13.83 Y-14.75 Z24.00 F3500 
M42 P11 S255 
G1 X14.37 Y-14.61 Z24.00 F3500 
M42 P11 S0 
G1 X14.37 Y-14.61 Z24.00 F3500 
M42 P11 S255 
G1 X15.08 Y-14.39 Z24.00 F3500 
M42 P11 S0 
G1 X15.08 Y-14.39 Z24.00 F3500 
M42 P11 S255 
G1 X15.80 Y-14.15 Z24.00 F3500 
M42 P11 S0 
G1 X15.80 Y-14.15 Z24.00 F3500 
M42 P11 S255 
G1 X16.21 Y-14.00 Z24.00 F3500 
M42 P11 S0 
G1 X16.21 Y-14.00 Z24.00 F3500 
M42 P11 S255 
G1 X16.97 Y-13.65 Z24.00 F3500 
M42 P11 S0 
G1 X16.97 Y-13.65 Z24.00 F3500 
M42 P11 S255 
G1 X17.09 Y-13.60 Z24.00 F3500 
M42 P11 S0 
G1 X17.09 Y-13.60 Z24.00 F3500 
M42 P11 S255 
G1 X17.69 Y-13.27 Z24.00 F3500 
M42 P11 S0 
G1 X17.69 Y-13.27 Z24.00 F3500 
M42 P11 S255 
G1 X19.00 Y-12.67 Z24.00 F3500 
M42 P11 S0 
G1 X19.00 Y-12.67 Z24.00 F3500 
M42 P11 S255 
G1 X19.07 Y-12.63 Z24.00 F3500 
M42 P11 S0 
G1 X19.07 Y-12.63 Z24.00 F3500 
M42 P11 S255 
G1 X19.11 Y-12.60 Z24.00 F3500 
M42 P11 S0 
G1 X19.11 Y-12.60 Z24.00 F3500 
M42 P11 S255 
G1 X19.42 Y-12.45 Z24.00 F3500 
M42 P11 S0 
G1 X19.42 Y-12.45 Z24.00 F3500 
M42 P11 S255 
G1 X20.74 Y-11.76 Z24.00 F3500 
M42 P11 S0 
G1 X20.74 Y-11.76 Z24.00 F3500 
M42 P11 S255 
G1 X21.02 Y-11.59 Z24.00 F3500 
M42 P11 S0 
G1 X21.02 Y-11.59 Z24.00 F3500 
M42 P11 S255 
G1 X21.88 Y-10.95 Z24.00 F3500 
M42 P11 S0 
G1 X21.88 Y-10.95 Z24.00 F3500 
M42 P11 S255 
G1 X22.45 Y-10.27 Z24.00 F3500 
M42 P11 S0 
G1 X22.45 Y-10.27 Z24.00 F3500 
M42 P11 S255 
G1 X22.70 Y-9.97 Z24.00 F3500 
M42 P11 S0 
G1 X22.70 Y-9.97 Z24.00 F3500 
M42 P11 S255 
G1 X23.13 Y-9.38 Z24.00 F3500 
M42 P11 S0 
G1 X23.13 Y-9.38 Z24.00 F3500 
M42 P11 S255 
G1 X23.36 Y-8.93 Z24.00 F3500 
M42 P11 S0 
G1 X23.36 Y-8.93 Z24.00 F3500 
M42 P11 S255 
G1 X23.52 Y-8.60 Z24.00 F3500 
M42 P11 S0 
G1 X23.52 Y-8.60 Z24.00 F3500 
M42 P11 S255 
G1 X23.88 Y-7.80 Z24.00 F3500 
M42 P11 S0 
G1 X23.88 Y-7.80 Z24.00 F3500 
M42 P11 S255 
G1 X24.04 Y-7.28 Z24.00 F3500 
M42 P11 S0 
G1 X24.04 Y-7.28 Z24.00 F3500 
M42 P11 S255 
G1 X24.19 Y-6.46 Z24.00 F3500 
M42 P11 S0 
G1 X24.19 Y-6.46 Z24.00 F3500 
M42 P11 S255 
G1 X24.23 Y-6.01 Z24.00 F3500 
M42 P11 S0 
G1 X24.23 Y-6.01 Z24.00 F3500 
M42 P11 S255 
G1 X24.27 Y-5.23 Z24.00 F3500 
M42 P11 S0 
G1 X24.27 Y-5.23 Z24.00 F3500 
M42 P11 S255 
G1 X24.26 Y-4.91 Z24.00 F3500 
M42 P11 S0 
G1 X24.26 Y-4.91 Z24.00 F3500 
M42 P11 S255 
G1 X24.28 Y-4.69 Z24.00 F3500 
M42 P11 S0 
G1 X24.28 Y-4.69 Z24.00 F3500 
M42 P11 S255 
G1 X24.27 Y-3.77 Z24.00 F3500 
M42 P11 S0 
G1 X24.27 Y-3.77 Z24.00 F3500 
M42 P11 S255 
G1 X24.38 Y-2.72 Z24.00 F3500 
M42 P11 S0 
G1 X24.38 Y-2.72 Z24.00 F3500 
M42 P11 S255 
G1 X24.38 Y-2.53 Z24.00 F3500 
M42 P11 S0 
G1 X24.38 Y-2.53 Z24.00 F3500 
M42 P11 S255 
G1 X24.41 Y-1.95 Z24.00 F3500 
M42 P11 S0 
G1 X24.41 Y-1.95 Z24.00 F3500 
M42 P11 S255 
G1 X24.39 Y-1.13 Z24.00 F3500 
M42 P11 S0 
G1 X24.39 Y-1.13 Z24.00 F3500 
M42 P11 S255 
G1 X24.36 Y-0.91 Z24.00 F3500 
M42 P11 S0 
G1 X24.36 Y-0.91 Z24.00 F3500 
M42 P11 S255 
G1 X24.28 Y-0.06 Z24.00 F3500 
M42 P11 S0 
G1 X24.28 Y-0.06 Z24.00 F3500 
M42 P11 S255 
G1 X24.24 Y0.34 Z24.00 F3500 
M42 P11 S0 
G1 X24.24 Y0.34 Z24.00 F3500 
M42 P11 S255 
G1 X24.21 Y0.43 Z24.00 F3500 
M42 P11 S0 
G1 X24.21 Y0.43 Z24.00 F3500 
M42 P11 S255 
G1 X23.79 Y1.43 Z24.00 F3500 
M42 P11 S0 
G1 X23.79 Y1.43 Z24.00 F3500 
M42 P11 S255 
G1 X23.70 Y1.58 Z24.00 F3500 
M42 P11 S0 
G1 X23.70 Y1.58 Z24.00 F3500 
M42 P11 S255 
G1 X23.32 Y2.29 Z24.00 F3500 
M42 P11 S0 
G1 X23.32 Y2.29 Z24.00 F3500 
M42 P11 S255 
G1 X23.10 Y2.66 Z24.00 F3500 
M42 P11 S0 
G1 X23.10 Y2.66 Z24.00 F3500 
M42 P11 S255 
G1 X22.98 Y2.86 Z24.00 F3500 
M42 P11 S0 
G1 X22.98 Y2.86 Z24.00 F3500 
M42 P11 S255 
G1 X22.47 Y3.60 Z24.00 F3500 
M42 P11 S0 
G1 X22.47 Y3.60 Z24.00 F3500 
M42 P11 S255 
G1 X22.20 Y3.93 Z24.00 F3500 
M42 P11 S0 
G1 X22.20 Y3.93 Z24.00 F3500 
M42 P11 S255 
G1 X21.52 Y4.58 Z24.00 F3500 
M42 P11 S0 
G1 X21.52 Y4.58 Z24.00 F3500 
M42 P11 S255 
G1 X21.40 Y4.65 Z24.00 F3500 
M42 P11 S0 
G1 X21.40 Y4.65 Z24.00 F3500 
M42 P11 S255 
G1 X21.30 Y4.73 Z24.00 F3500 
M42 P11 S0 
G1 X21.30 Y4.73 Z24.00 F3500 
M42 P11 S255 
G1 X20.37 Y5.25 Z24.00 F3500 
M42 P11 S0 
G1 X20.37 Y5.25 Z24.00 F3500 
M42 P11 S255 
G1 X19.51 Y5.90 Z24.00 F3500 
M42 P11 S0 
G1 X19.51 Y5.90 Z24.00 F3500 
M42 P11 S255 
G1 X19.19 Y6.12 Z24.00 F3500 
M42 P11 S0 
G1 X19.19 Y6.12 Z24.00 F3500 
M42 P11 S255 
G1 X18.90 Y6.34 Z24.00 F3500 
M42 P11 S0 
G1 X18.90 Y6.34 Z24.00 F3500 
M42 P11 S255 
G1 X18.10 Y6.85 Z24.00 F3500 
M42 P11 S0 
G1 X18.10 Y6.85 Z24.00 F3500 
M42 P11 S255 
G1 X17.90 Y6.94 Z24.00 F3500 
M42 P11 S0 
G1 X17.90 Y6.94 Z24.00 F3500 
M42 P11 S255 
G1 X17.58 Y7.12 Z24.00 F3500 
M42 P11 S0 
G1 X17.58 Y7.12 Z24.00 F3500 
M42 P11 S255 
G1 X17.06 Y7.36 Z24.00 F3500 
M42 P11 S0 
G1 X17.06 Y7.36 Z24.00 F3500 
M42 P11 S255 
G1 X16.68 Y7.60 Z24.00 F3500 
M42 P11 S0 
G1 X16.68 Y7.60 Z24.00 F3500 
M42 P11 S255 
G1 X16.38 Y7.75 Z24.00 F3500 
M42 P11 S0 
G1 X16.38 Y7.75 Z24.00 F3500 
M42 P11 S255 
G1 X16.17 Y7.90 Z24.00 F3500 
M42 P11 S0 
G1 X16.17 Y7.90 Z24.00 F3500 
M42 P11 S255 
G1 X15.90 Y8.05 Z24.00 F3500 
M42 P11 S0 
G1 X15.90 Y8.05 Z24.00 F3500 
M42 P11 S255 
G1 X15.65 Y8.19 Z24.00 F3500 
M42 P11 S0 
G1 X15.65 Y8.19 Z24.00 F3500 
M42 P11 S255 
G1 X15.30 Y8.35 Z24.00 F3500 
M42 P11 S0 
G1 X15.30 Y8.35 Z24.00 F3500 
M42 P11 S255 
G1 X14.83 Y8.66 Z24.00 F3500 
M42 P11 S0 
G1 X14.83 Y8.66 Z24.00 F3500 
M42 P11 S255 
G1 X14.67 Y8.76 Z24.00 F3500 
M42 P11 S0 
G1 X14.67 Y8.76 Z24.00 F3500 
M42 P11 S255 
G1 X14.61 Y8.82 Z24.00 F3500 
M42 P11 S0 
G1 X14.61 Y8.82 Z24.00 F3500 
M42 P11 S255 
G1 X14.21 Y9.09 Z24.00 F3500 
M42 P11 S0 
G1 X14.21 Y9.09 Z24.00 F3500 
M42 P11 S255 
G1 X13.94 Y9.29 Z24.00 F3500 
M42 P11 S0 
G1 X13.94 Y9.29 Z24.00 F3500 
M42 P11 S255 
G1 X13.92 Y9.31 Z24.00 F3500 
M42 P11 S0 
G1 X13.92 Y9.31 Z24.00 F3500 
M42 P11 S255 
G1 X13.48 Y9.53 Z24.00 F3500 
M42 P11 S0 
G1 X13.48 Y9.53 Z24.00 F3500 
M42 P11 S255 
G1 X13.18 Y9.68 Z24.00 F3500 
M42 P11 S0 
G1 X13.18 Y9.68 Z24.00 F3500 
M42 P11 S255 
G1 X12.89 Y9.81 Z24.00 F3500 
M42 P11 S0 
G1 X12.89 Y9.81 Z24.00 F3500 
M42 P11 S255 
G1 X12.56 Y9.98 Z24.00 F3500 
M42 P11 S0 
G1 X12.56 Y9.98 Z24.00 F3500 
M42 P11 S255 
G1 X12.15 Y10.16 Z24.00 F3500 
M42 P11 S0 
G1 X12.15 Y10.16 Z24.00 F3500 
M42 P11 S255 
G1 X11.95 Y10.23 Z24.00 F3500 
M42 P11 S0 
G1 X11.95 Y10.23 Z24.00 F3500 
M42 P11 S255 
G1 X11.28 Y10.62 Z24.00 F3500 
M42 P11 S0 
G1 X11.28 Y10.62 Z24.00 F3500 
M42 P11 S255 
G1 X11.15 Y10.68 Z24.00 F3500 
M42 P11 S0 
G1 X11.15 Y10.68 Z24.00 F3500 
M42 P11 S255 
G1 X10.64 Y11.04 Z24.00 F3500 
M42 P11 S0 
G1 X10.64 Y11.04 Z24.00 F3500 
M42 P11 S255 
G1 X10.37 Y11.22 Z24.00 F3500 
M42 P11 S0 
G1 X10.37 Y11.22 Z24.00 F3500 
M42 P11 S255 
G1 X10.10 Y11.46 Z24.00 F3500 
M42 P11 S0 
G1 X10.10 Y11.46 Z24.00 F3500 
M42 P11 S255 
G1 X9.86 Y11.63 Z24.00 F3500 
M42 P11 S0 
G1 X9.86 Y11.63 Z24.00 F3500 
M42 P11 S255 
G1 X9.45 Y11.84 Z24.00 F3500 
M42 P11 S0 
G1 X9.45 Y11.84 Z24.00 F3500 
M42 P11 S255 
G1 X8.97 Y12.00 Z24.00 F3500 
M42 P11 S0 
G1 X8.97 Y12.00 Z24.00 F3500 
M42 P11 S255 
G1 X8.70 Y12.10 Z24.00 F3500 
M42 P11 S0 
G1 X8.70 Y12.10 Z24.00 F3500 
M42 P11 S255 
G1 X8.08 Y12.23 Z24.00 F3500 
M42 P11 S0 
G1 X8.08 Y12.23 Z24.00 F3500 
M42 P11 S255 
G1 X8.08 Y12.23 Z24.00 F3500 
M42 P11 S0 
G1 X8.08 Y12.23 Z24.00 F3500 
M42 P11 S255 
G1 X7.42 Y12.54 Z24.00 F3500 
M42 P11 S0 
G1 X7.42 Y12.54 Z24.00 F3500 
M42 P11 S255 
G1 X7.36 Y12.57 Z24.00 F3500 
M42 P11 S0 
G1 X7.36 Y12.57 Z24.00 F3500 
M42 P11 S255 
G1 X6.55 Y13.01 Z24.00 F3500 
M42 P11 S0 
G1 X6.55 Y13.01 Z24.00 F3500 
M42 P11 S255 
G1 X6.43 Y13.07 Z24.00 F3500 
M42 P11 S0 
G1 X6.43 Y13.07 Z24.00 F3500 
M42 P11 S255 
G1 X5.53 Y13.58 Z24.00 F3500 
M42 P11 S0 
G1 X5.53 Y13.58 Z24.00 F3500 
M42 P11 S255 
G1 X5.30 Y13.67 Z24.00 F3500 
M42 P11 S0 
G1 X5.30 Y13.67 Z24.00 F3500 
M42 P11 S255 
G1 X4.55 Y14.07 Z24.00 F3500 
M42 P11 S0 
G1 X4.55 Y14.07 Z24.00 F3500 
M42 P11 S255 
G1 X4.28 Y14.21 Z24.00 F3500 
M42 P11 S0 
G1 X4.28 Y14.21 Z24.00 F3500 
M42 P11 S255 
G1 X3.75 Y14.55 Z24.00 F3500 
M42 P11 S0 
G1 X3.75 Y14.55 Z24.00 F3500 
M42 P11 S255 
G1 X3.60 Y14.67 Z24.00 F3500 
M42 P11 S0 
G1 X3.60 Y14.67 Z24.00 F3500 
M42 P11 S255 
G1 X3.47 Y14.82 Z24.00 F3500 
M42 P11 S0 
G1 X3.47 Y14.82 Z24.00 F3500 
M42 P11 S255 
G1 X3.17 Y15.27 Z24.00 F3500 
M42 P11 S0 
G1 X3.17 Y15.27 Z24.00 F3500 
M42 P11 S255 
G1 X3.14 Y15.72 Z24.00 F3500 
M42 P11 S0 
G1 X3.14 Y15.72 Z24.00 F3500 
M42 P11 S255 
G1 X3.04 Y16.58 Z24.00 F3500 
M42 P11 S0 
G1 X3.04 Y16.58 Z24.00 F3500 
M42 P11 S255 
G1 X3.09 Y16.90 Z24.00 F3500 
M42 P11 S0 
G1 X3.09 Y16.90 Z24.00 F3500 
M42 P11 S255 
G1 X3.09 Y17.18 Z24.00 F3500 
M42 P11 S0 
G1 X3.09 Y17.18 Z24.00 F3500 
M42 P11 S255 
G1 X3.10 Y18.07 Z24.00 F3500 
M42 P11 S0 
G1 X3.10 Y18.07 Z24.00 F3500 
M42 P11 S255 
G1 X3.08 Y18.79 Z24.00 F3500 
M42 P11 S0 
G1 X3.08 Y18.79 Z24.00 F3500 
M42 P11 S255 
G1 X3.08 Y18.90 Z24.00 F3500 
M42 P11 S0 
G1 X3.08 Y18.90 Z24.00 F3500 
M42 P11 S255 
G1 X3.02 Y19.11 Z24.00 F3500 
M42 P11 S0 
G1 X3.02 Y19.11 Z24.00 F3500 
M42 P11 S255 
G1 X2.92 Y19.62 Z24.00 F3500 
M42 P11 S0 
G1 X2.92 Y19.62 Z24.00 F3500 
M42 P11 S255 
G1 X2.82 Y19.78 Z24.00 F3500 
M42 P11 S0 
G1 X2.82 Y19.78 Z24.00 F3500 
M42 P11 S255 
G1 X2.46 Y20.18 Z24.00 F3500 
M42 P11 S0 
G1 X2.46 Y20.18 Z24.00 F3500 
M42 P11 S255 
G1 X2.13 Y20.33 Z24.00 F3500 
M42 P11 S0 
G1 X2.13 Y20.33 Z24.00 F3500 
M42 P11 S255 
G1 X1.66 Y20.46 Z24.00 F3500 
M42 P11 S0 
G1 X1.66 Y20.46 Z24.00 F3500 
M42 P11 S255 
G1 X0.72 Y20.44 Z24.00 F3500 
M42 P11 S0 
G1 X0.72 Y20.44 Z24.00 F3500 
M42 P11 S255 
G1 X0.48 Y20.42 Z24.00 F3500 
M42 P11 S0 
G1 X0.48 Y20.42 Z24.00 F3500 
M42 P11 S255 
G1 X0.19 Y20.35 Z24.00 F3500 
M42 P11 S0 
G1 X0.19 Y20.35 Z24.00 F3500 
M42 P11 S255 
G1 X-0.94 Y20.09 Z24.00 F3500 
M42 P11 S0 
G1 X-0.94 Y20.09 Z24.00 F3500 
M42 P11 S255 
G1 X-1.80 Y19.96 Z24.00 F3500 
M42 P11 S0 
G1 X-1.80 Y19.96 Z24.00 F3500 
M42 P11 S255 
G1 X-2.50 Y19.74 Z24.00 F3500 
M42 P11 S0 
G1 X-2.50 Y19.74 Z24.00 F3500 
M42 P11 S255 
G1 X-3.96 Y19.51 Z24.00 F3500 
M42 P11 S0 
G1 X-3.96 Y19.51 Z24.00 F3500 
M42 P11 S255 
G1 X-3.98 Y19.50 Z24.00 F3500 
M42 P11 S0 
G1 X-3.98 Y19.50 Z24.00 F3500 
M42 P11 S255 
G1 X-4.00 Y19.50 Z24.00 F3500 
M42 P11 S0 
G1 X-4.00 Y19.50 Z24.00 F3500 
M42 P11 S255 
G1 X-4.21 Y19.50 Z24.00 F3500 
M42 P11 S0 
G1 X-4.21 Y19.50 Z24.00 F3500 
M42 P11 S255 
G1 X-6.27 Y19.46 Z24.00 F3500 
M42 P11 S0 
G1 X-6.27 Y19.46 Z24.00 F3500 
M42 P11 S255 
G1 X-6.45 Y19.46 Z24.00 F3500 
M42 P11 S0 
G1 X-15.62 Y-25.78 Z27.00 F3500 
M42 P11 S255 
G1 X-14.58 Y-25.22 Z27.00 F3500 
M42 P11 S0 
G1 X-14.58 Y-25.22 Z27.00 F3500 
M42 P11 S255 
G1 X-14.22 Y-25.04 Z27.00 F3500 
M42 P11 S0 
G1 X-14.22 Y-25.04 Z27.00 F3500 
M42 P11 S255 
G1 X-13.81 Y-24.97 Z27.00 F3500 
M42 P11 S0 
G1 X-13.81 Y-24.97 Z27.00 F3500 
M42 P11 S255 
G1 X-12.85 Y-24.80 Z27.00 F3500 
M42 P11 S0 
G1 X-12.85 Y-24.80 Z27.00 F3500 
M42 P11 S255 
G1 X-12.38 Y-24.83 Z27.00 F3500 
M42 P11 S0 
G1 X-12.38 Y-24.83 Z27.00 F3500 
M42 P11 S255 
G1 X-11.35 Y-24.82 Z27.00 F3500 
M42 P11 S0 
G1 X-11.35 Y-24.82 Z27.00 F3500 
M42 P11 S255 
G1 X-9.98 Y-24.89 Z27.00 F3500 
M42 P11 S0 
G1 X-9.98 Y-24.89 Z27.00 F3500 
M42 P11 S255 
G1 X-9.76 Y-24.92 Z27.00 F3500 
M42 P11 S0 
G1 X-9.76 Y-24.92 Z27.00 F3500 
M42 P11 S255 
G1 X-9.43 Y-24.96 Z27.00 F3500 
M42 P11 S0 
G1 X-9.43 Y-24.96 Z27.00 F3500 
M42 P11 S255 
G1 X-8.11 Y-25.09 Z27.00 F3500 
M42 P11 S0 
G1 X-8.11 Y-25.09 Z27.00 F3500 
M42 P11 S255 
G1 X-7.48 Y-25.17 Z27.00 F3500 
M42 P11 S0 
G1 X-7.48 Y-25.17 Z27.00 F3500 
M42 P11 S255 
G1 X-6.83 Y-25.28 Z27.00 F3500 
M42 P11 S0 
G1 X-6.83 Y-25.28 Z27.00 F3500 
M42 P11 S255 
G1 X-6.28 Y-25.44 Z27.00 F3500 
M42 P11 S0 
G1 X-6.28 Y-25.44 Z27.00 F3500 
M42 P11 S255 
G1 X-5.73 Y-25.56 Z27.00 F3500 
M42 P11 S0 
G1 X-5.73 Y-25.56 Z27.00 F3500 
M42 P11 S255 
G1 X-5.13 Y-25.74 Z27.00 F3500 
M42 P11 S0 
G1 X-5.13 Y-25.74 Z27.00 F3500 
M42 P11 S255 
G1 X-4.55 Y-25.93 Z27.00 F3500 
M42 P11 S0 
G1 X-4.55 Y-25.93 Z27.00 F3500 
M42 P11 S255 
G1 X-3.04 Y-26.44 Z27.00 F3500 
M42 P11 S0 
G1 X-3.04 Y-26.44 Z27.00 F3500 
M42 P11 S255 
G1 X-3.00 Y-26.46 Z27.00 F3500 
M42 P11 S0 
G1 X-3.00 Y-26.46 Z27.00 F3500 
M42 P11 S255 
G1 X-2.93 Y-26.48 Z27.00 F3500 
M42 P11 S0 
G1 X-2.93 Y-26.48 Z27.00 F3500 
M42 P11 S255 
G1 X-1.59 Y-26.89 Z27.00 F3500 
M42 P11 S0 
G1 X-1.59 Y-26.89 Z27.00 F3500 
M42 P11 S255 
G1 X-0.77 Y-27.02 Z27.00 F3500 
M42 P11 S0 
G1 X-0.77 Y-27.02 Z27.00 F3500 
M42 P11 S255 
G1 X-0.72 Y-27.02 Z27.00 F3500 
M42 P11 S0 
G1 X-0.72 Y-27.02 Z27.00 F3500 
M42 P11 S255 
G1 X-0.66 Y-27.00 Z27.00 F3500 
M42 P11 S0 
G1 X-0.66 Y-27.00 Z27.00 F3500 
M42 P11 S255 
G1 X0.07 Y-26.75 Z27.00 F3500 
M42 P11 S0 
G1 X0.07 Y-26.75 Z27.00 F3500 
M42 P11 S255 
G1 X0.63 Y-26.26 Z27.00 F3500 
M42 P11 S0 
G1 X0.63 Y-26.26 Z27.00 F3500 
M42 P11 S255 
G1 X0.79 Y-26.15 Z27.00 F3500 
M42 P11 S0 
G1 X0.79 Y-26.15 Z27.00 F3500 
M42 P11 S255 
G1 X1.14 Y-25.81 Z27.00 F3500 
M42 P11 S0 
G1 X1.14 Y-25.81 Z27.00 F3500 
M42 P11 S255 
G1 X1.53 Y-25.40 Z27.00 F3500 
M42 P11 S0 
G1 X1.53 Y-25.40 Z27.00 F3500 
M42 P11 S255 
G1 X1.69 Y-25.23 Z27.00 F3500 
M42 P11 S0 
G1 X1.69 Y-25.23 Z27.00 F3500 
M42 P11 S255 
G1 X2.45 Y-24.73 Z27.00 F3500 
M42 P11 S0 
G1 X2.45 Y-24.73 Z27.00 F3500 
M42 P11 S255 
G1 X2.91 Y-24.50 Z27.00 F3500 
M42 P11 S0 
G1 X2.91 Y-24.50 Z27.00 F3500 
M42 P11 S255 
G1 X3.66 Y-24.19 Z27.00 F3500 
M42 P11 S0 
G1 X3.66 Y-24.19 Z27.00 F3500 
M42 P11 S255 
G1 X4.96 Y-23.53 Z27.00 F3500 
M42 P11 S0 
G1 X4.96 Y-23.53 Z27.00 F3500 
M42 P11 S255 
G1 X5.01 Y-23.51 Z27.00 F3500 
M42 P11 S0 
G1 X5.01 Y-23.51 Z27.00 F3500 
M42 P11 S255 
G1 X5.03 Y-23.49 Z27.00 F3500 
M42 P11 S0 
G1 X5.03 Y-23.49 Z27.00 F3500 
M42 P11 S255 
G1 X6.05 Y-22.55 Z27.00 F3500 
M42 P11 S0 
G1 X6.05 Y-22.55 Z27.00 F3500 
M42 P11 S255 
G1 X6.88 Y-21.91 Z27.00 F3500 
M42 P11 S0 
G1 X6.88 Y-21.91 Z27.00 F3500 
M42 P11 S255 
G1 X6.94 Y-21.86 Z27.00 F3500 
M42 P11 S0 
G1 X6.94 Y-21.86 Z27.00 F3500 
M42 P11 S255 
G1 X7.05 Y-21.78 Z27.00 F3500 
M42 P11 S0 
G1 X7.05 Y-21.78 Z27.00 F3500 
M42 P11 S255 
G1 X7.71 Y-21.15 Z27.00 F3500 
M42 P11 S0 
G1 X7.71 Y-21.15 Z27.00 F3500 
M42 P11 S255 
G1 X8.35 Y-20.60 Z27.00 F3500 
M42 P11 S0 
G1 X8.35 Y-20.60 Z27.00 F3500 
M42 P11 S255 
G1 X8.47 Y-20.45 Z27.00 F3500 
M42 P11 S0 
G1 X8.47 Y-20.45 Z27.00 F3500 
M42 P11 S255 
G1 X8.61 Y-20.32 Z27.00 F3500 
M42 P11 S0 
G1 X8.61 Y-20.32 Z27.00 F3500 
M42 P11 S255 
G1 X9.34 Y-19.59 Z27.00 F3500 
M42 P11 S0 
G1 X9.34 Y-19.59 Z27.00 F3500 
M42 P11 S255 
G1 X10.18 Y-18.86 Z27.00 F3500 
M42 P11 S0 
G1 X10.18 Y-18.86 Z27.00 F3500 
M42 P11 S255 
G1 X10.46 Y-18.56 Z27.00 F3500 
M42 P11 S0 
G1 X10.46 Y-18.56 Z27.00 F3500 
M42 P11 S255 
G1 X10.81 Y-18.23 Z27.00 F3500 
M42 P11 S0 
G1 X10.81 Y-18.23 Z27.00 F3500 
M42 P11 S255 
G1 X11.66 Y-17.40 Z27.00 F3500 
M42 P11 S0 
G1 X11.66 Y-17.40 Z27.00 F3500 
M42 P11 S255 
G1 X12.43 Y-16.81 Z27.00 F3500 
M42 P11 S0 
G1 X12.43 Y-16.81 Z27.00 F3500 
M42 P11 S255 
G1 X12.74 Y-16.57 Z27.00 F3500 
M42 P11 S0 
G1 X12.74 Y-16.57 Z27.00 F3500 
M42 P11 S255 
G1 X13.63 Y-16.18 Z27.00 F3500 
M42 P11 S0 
G1 X13.63 Y-16.18 Z27.00 F3500 
M42 P11 S255 
G1 X13.88 Y-16.05 Z27.00 F3500 
M42 P11 S0 
G1 X13.88 Y-16.05 Z27.00 F3500 
M42 P11 S255 
G1 X14.85 Y-15.78 Z27.00 F3500 
M42 P11 S0 
G1 X14.85 Y-15.78 Z27.00 F3500 
M42 P11 S255 
G1 X15.02 Y-15.71 Z27.00 F3500 
M42 P11 S0 
G1 X15.02 Y-15.71 Z27.00 F3500 
M42 P11 S255 
G1 X16.01 Y-15.42 Z27.00 F3500 
M42 P11 S0 
G1 X16.01 Y-15.42 Z27.00 F3500 
M42 P11 S255 
G1 X16.37 Y-15.21 Z27.00 F3500 
M42 P11 S0 
G1 X16.37 Y-15.21 Z27.00 F3500 
M42 P11 S255 
G1 X17.31 Y-14.68 Z27.00 F3500 
M42 P11 S0 
G1 X17.31 Y-14.68 Z27.00 F3500 
M42 P11 S255 
G1 X17.44 Y-14.58 Z27.00 F3500 
M42 P11 S0 
G1 X17.44 Y-14.58 Z27.00 F3500 
M42 P11 S255 
G1 X17.65 Y-14.41 Z27.00 F3500 
M42 P11 S0 
G1 X17.65 Y-14.41 Z27.00 F3500 
M42 P11 S255 
G1 X18.07 Y-14.11 Z27.00 F3500 
M42 P11 S0 
G1 X18.07 Y-14.11 Z27.00 F3500 
M42 P11 S255 
G1 X18.33 Y-13.89 Z27.00 F3500 
M42 P11 S0 
G1 X18.33 Y-13.89 Z27.00 F3500 
M42 P11 S255 
G1 X18.64 Y-13.65 Z27.00 F3500 
M42 P11 S0 
G1 X18.64 Y-13.65 Z27.00 F3500 
M42 P11 S255 
G1 X18.96 Y-13.35 Z27.00 F3500 
M42 P11 S0 
G1 X18.96 Y-13.35 Z27.00 F3500 
M42 P11 S255 
G1 X19.37 Y-13.02 Z27.00 F3500 
M42 P11 S0 
G1 X19.37 Y-13.02 Z27.00 F3500 
M42 P11 S255 
G1 X19.54 Y-12.83 Z27.00 F3500 
M42 P11 S0 
G1 X19.54 Y-12.83 Z27.00 F3500 
M42 P11 S255 
G1 X19.93 Y-12.42 Z27.00 F3500 
M42 P11 S0 
G1 X19.93 Y-12.42 Z27.00 F3500 
M42 P11 S255 
G1 X20.11 Y-12.23 Z27.00 F3500 
M42 P11 S0 
G1 X20.11 Y-12.23 Z27.00 F3500 
M42 P11 S255 
G1 X20.36 Y-11.90 Z27.00 F3500 
M42 P11 S0 
G1 X20.36 Y-11.90 Z27.00 F3500 
M42 P11 S255 
G1 X20.58 Y-11.70 Z27.00 F3500 
M42 P11 S0 
G1 X20.58 Y-11.70 Z27.00 F3500 
M42 P11 S255 
G1 X20.80 Y-11.30 Z27.00 F3500 
M42 P11 S0 
G1 X20.80 Y-11.30 Z27.00 F3500 
M42 P11 S255 
G1 X21.15 Y-10.78 Z27.00 F3500 
M42 P11 S0 
G1 X21.15 Y-10.78 Z27.00 F3500 
M42 P11 S255 
G1 X21.18 Y-10.71 Z27.00 F3500 
M42 P11 S0 
G1 X21.18 Y-10.71 Z27.00 F3500 
M42 P11 S255 
G1 X21.22 Y-10.64 Z27.00 F3500 
M42 P11 S0 
G1 X21.22 Y-10.64 Z27.00 F3500 
M42 P11 S255 
G1 X21.65 Y-10.03 Z27.00 F3500 
M42 P11 S0 
G1 X21.65 Y-10.03 Z27.00 F3500 
M42 P11 S255 
G1 X21.91 Y-9.66 Z27.00 F3500 
M42 P11 S0 
G1 X21.91 Y-9.66 Z27.00 F3500 
M42 P11 S255 
G1 X22.18 Y-9.27 Z27.00 F3500 
M42 P11 S0 
G1 X22.18 Y-9.27 Z27.00 F3500 
M42 P11 S255 
G1 X22.57 Y-8.62 Z27.00 F3500 
M42 P11 S0 
G1 X22.57 Y-8.62 Z27.00 F3500 
M42 P11 S255 
G1 X22.67 Y-8.39 Z27.00 F3500 
M42 P11 S0 
G1 X22.67 Y-8.39 Z27.00 F3500 
M42 P11 S255 
G1 X22.77 Y-8.08 Z27.00 F3500 
M42 P11 S0 
G1 X22.77 Y-8.08 Z27.00 F3500 
M42 P11 S255 
G1 X22.97 Y-7.33 Z27.00 F3500 
M42 P11 S0 
G1 X22.97 Y-7.33 Z27.00 F3500 
M42 P11 S255 
G1 X23.14 Y-6.31 Z27.00 F3500 
M42 P11 S0 
G1 X23.14 Y-6.31 Z27.00 F3500 
M42 P11 S255 
G1 X23.27 Y-5.75 Z27.00 F3500 
M42 P11 S0 
G1 X23.27 Y-5.75 Z27.00 F3500 
M42 P11 S255 
G1 X23.34 Y-4.82 Z27.00 F3500 
M42 P11 S0 
G1 X23.34 Y-4.82 Z27.00 F3500 
M42 P11 S255 
G1 X23.48 Y-3.90 Z27.00 F3500 
M42 P11 S0 
G1 X23.48 Y-3.90 Z27.00 F3500 
M42 P11 S255 
G1 X23.49 Y-3.52 Z27.00 F3500 
M42 P11 S0 
G1 X23.49 Y-3.52 Z27.00 F3500 
M42 P11 S255 
G1 X23.53 Y-2.94 Z27.00 F3500 
M42 P11 S0 
G1 X23.53 Y-2.94 Z27.00 F3500 
M42 P11 S255 
G1 X23.53 Y-2.46 Z27.00 F3500 
M42 P11 S0 
G1 X23.53 Y-2.46 Z27.00 F3500 
M42 P11 S255 
G1 X23.41 Y-1.45 Z27.00 F3500 
M42 P11 S0 
G1 X23.41 Y-1.45 Z27.00 F3500 
M42 P11 S255 
G1 X23.39 Y-1.27 Z27.00 F3500 
M42 P11 S0 
G1 X23.39 Y-1.27 Z27.00 F3500 
M42 P11 S255 
G1 X23.22 Y-0.34 Z27.00 F3500 
M42 P11 S0 
G1 X23.22 Y-0.34 Z27.00 F3500 
M42 P11 S255 
G1 X23.09 Y0.24 Z27.00 F3500 
M42 P11 S0 
G1 X23.09 Y0.24 Z27.00 F3500 
M42 P11 S255 
G1 X23.06 Y0.33 Z27.00 F3500 
M42 P11 S0 
G1 X23.06 Y0.33 Z27.00 F3500 
M42 P11 S255 
G1 X22.63 Y1.72 Z27.00 F3500 
M42 P11 S0 
G1 X22.63 Y1.72 Z27.00 F3500 
M42 P11 S255 
G1 X22.61 Y1.79 Z27.00 F3500 
M42 P11 S0 
G1 X22.61 Y1.79 Z27.00 F3500 
M42 P11 S255 
G1 X22.61 Y1.80 Z27.00 F3500 
M42 P11 S0 
G1 X22.61 Y1.80 Z27.00 F3500 
M42 P11 S255 
G1 X22.60 Y1.81 Z27.00 F3500 
M42 P11 S0 
G1 X22.60 Y1.81 Z27.00 F3500 
M42 P11 S255 
G1 X22.13 Y2.73 Z27.00 F3500 
M42 P11 S0 
G1 X22.13 Y2.73 Z27.00 F3500 
M42 P11 S255 
G1 X21.70 Y3.27 Z27.00 F3500 
M42 P11 S0 
G1 X21.70 Y3.27 Z27.00 F3500 
M42 P11 S255 
G1 X21.50 Y3.54 Z27.00 F3500 
M42 P11 S0 
G1 X21.50 Y3.54 Z27.00 F3500 
M42 P11 S255 
G1 X21.32 Y3.69 Z27.00 F3500 
M42 P11 S0 
G1 X21.32 Y3.69 Z27.00 F3500 
M42 P11 S255 
G1 X20.88 Y4.14 Z27.00 F3500 
M42 P11 S0 
G1 X20.88 Y4.14 Z27.00 F3500 
M42 P11 S255 
G1 X20.47 Y4.56 Z27.00 F3500 
M42 P11 S0 
G1 X20.47 Y4.56 Z27.00 F3500 
M42 P11 S255 
G1 X20.44 Y4.59 Z27.00 F3500 
M42 P11 S0 
G1 X20.44 Y4.59 Z27.00 F3500 
M42 P11 S255 
G1 X20.42 Y4.62 Z27.00 F3500 
M42 P11 S0 
G1 X20.42 Y4.62 Z27.00 F3500 
M42 P11 S255 
G1 X20.07 Y5.04 Z27.00 F3500 
M42 P11 S0 
G1 X20.07 Y5.04 Z27.00 F3500 
M42 P11 S255 
G1 X19.70 Y5.39 Z27.00 F3500 
M42 P11 S0 
G1 X19.70 Y5.39 Z27.00 F3500 
M42 P11 S255 
G1 X19.62 Y5.44 Z27.00 F3500 
M42 P11 S0 
G1 X19.62 Y5.44 Z27.00 F3500 
M42 P11 S255 
G1 X19.51 Y5.50 Z27.00 F3500 
M42 P11 S0 
G1 X19.51 Y5.50 Z27.00 F3500 
M42 P11 S255 
G1 X19.03 Y5.94 Z27.00 F3500 
M42 P11 S0 
G1 X19.03 Y5.94 Z27.00 F3500 
M42 P11 S255 
G1 X18.67 Y6.19 Z27.00 F3500 
M42 P11 S0 
G1 X18.67 Y6.19 Z27.00 F3500 
M42 P11 S255 
G1 X18.32 Y6.83 Z27.00 F3500 
M42 P11 S0 
G1 X18.32 Y6.83 Z27.00 F3500 
M42 P11 S255 
G1 X18.01 Y7.25 Z27.00 F3500 
M42 P11 S0 
G1 X18.01 Y7.25 Z27.00 F3500 
M42 P11 S255 
G1 X17.60 Y8.55 Z27.00 F3500 
M42 P11 S0 
G1 X17.60 Y8.55 Z27.00 F3500 
M42 P11 S255 
G1 X17.46 Y9.00 Z27.00 F3500 
M42 P11 S0 
G1 X17.46 Y9.00 Z27.00 F3500 
M42 P11 S255 
G1 X17.35 Y9.65 Z27.00 F3500 
M42 P11 S0 
G1 X17.35 Y9.65 Z27.00 F3500 
M42 P11 S255 
G1 X17.07 Y10.57 Z27.00 F3500 
M42 P11 S0 
G1 X17.07 Y10.57 Z27.00 F3500 
M42 P11 S255 
G1 X16.93 Y10.95 Z27.00 F3500 
M42 P11 S0 
G1 X16.93 Y10.95 Z27.00 F3500 
M42 P11 S255 
G1 X16.56 Y11.80 Z27.00 F3500 
M42 P11 S0 
G1 X16.56 Y11.80 Z27.00 F3500 
M42 P11 S255 
G1 X16.16 Y12.32 Z27.00 F3500 
M42 P11 S0 
G1 X16.16 Y12.32 Z27.00 F3500 
M42 P11 S255 
G1 X15.80 Y12.70 Z27.00 F3500 
M42 P11 S0 
G1 X15.80 Y12.70 Z27.00 F3500 
M42 P11 S255 
G1 X15.24 Y13.03 Z27.00 F3500 
M42 P11 S0 
G1 X15.24 Y13.03 Z27.00 F3500 
M42 P11 S255 
G1 X14.83 Y13.19 Z27.00 F3500 
M42 P11 S0 
G1 X14.83 Y13.19 Z27.00 F3500 
M42 P11 S255 
G1 X14.32 Y13.26 Z27.00 F3500 
M42 P11 S0 
G1 X14.32 Y13.26 Z27.00 F3500 
M42 P11 S255 
G1 X13.78 Y13.37 Z27.00 F3500 
M42 P11 S0 
G1 X13.78 Y13.37 Z27.00 F3500 
M42 P11 S255 
G1 X13.25 Y13.41 Z27.00 F3500 
M42 P11 S0 
G1 X13.25 Y13.41 Z27.00 F3500 
M42 P11 S255 
G1 X12.78 Y13.55 Z27.00 F3500 
M42 P11 S0 
G1 X12.78 Y13.55 Z27.00 F3500 
M42 P11 S255 
G1 X12.01 Y13.79 Z27.00 F3500 
M42 P11 S0 
G1 X12.01 Y13.79 Z27.00 F3500 
M42 P11 S255 
G1 X11.92 Y13.83 Z27.00 F3500 
M42 P11 S0 
G1 X11.92 Y13.83 Z27.00 F3500 
M42 P11 S255 
G1 X11.82 Y13.88 Z27.00 F3500 
M42 P11 S0 
G1 X11.82 Y13.88 Z27.00 F3500 
M42 P11 S255 
G1 X11.12 Y14.09 Z27.00 F3500 
M42 P11 S0 
G1 X11.12 Y14.09 Z27.00 F3500 
M42 P11 S255 
G1 X10.64 Y14.34 Z27.00 F3500 
M42 P11 S0 
G1 X10.64 Y14.34 Z27.00 F3500 
M42 P11 S255 
G1 X10.40 Y14.45 Z27.00 F3500 
M42 P11 S0 
G1 X10.40 Y14.45 Z27.00 F3500 
M42 P11 S255 
G1 X9.95 Y14.70 Z27.00 F3500 
M42 P11 S0 
G1 X9.95 Y14.70 Z27.00 F3500 
M42 P11 S255 
G1 X9.29 Y15.19 Z27.00 F3500 
M42 P11 S0 
G1 X9.29 Y15.19 Z27.00 F3500 
M42 P11 S255 
G1 X9.17 Y15.29 Z27.00 F3500 
M42 P11 S0 
G1 X9.17 Y15.29 Z27.00 F3500 
M42 P11 S255 
G1 X9.01 Y15.46 Z27.00 F3500 
M42 P11 S0 
G1 X9.01 Y15.46 Z27.00 F3500 
M42 P11 S255 
G1 X8.40 Y16.04 Z27.00 F3500 
M42 P11 S0 
G1 X8.40 Y16.04 Z27.00 F3500 
M42 P11 S255 
G1 X7.92 Y16.61 Z27.00 F3500 
M42 P11 S0 
G1 X7.92 Y16.61 Z27.00 F3500 
M42 P11 S255 
G1 X7.74 Y16.76 Z27.00 F3500 
M42 P11 S0 
G1 X7.74 Y16.76 Z27.00 F3500 
M42 P11 S255 
G1 X7.60 Y16.90 Z27.00 F3500 
M42 P11 S0 
G1 X7.60 Y16.90 Z27.00 F3500 
M42 P11 S255 
G1 X7.09 Y17.44 Z27.00 F3500 
M42 P11 S0 
G1 X7.09 Y17.44 Z27.00 F3500 
M42 P11 S255 
G1 X6.78 Y17.72 Z27.00 F3500 
M42 P11 S0 
G1 X6.78 Y17.72 Z27.00 F3500 
M42 P11 S255 
G1 X6.41 Y18.04 Z27.00 F3500 
M42 P11 S0 
G1 X6.41 Y18.04 Z27.00 F3500 
M42 P11 S255 
G1 X5.96 Y18.31 Z27.00 F3500 
M42 P11 S0 
G1 X5.96 Y18.31 Z27.00 F3500 
M42 P11 S255 
G1 X5.59 Y18.51 Z27.00 F3500 
M42 P11 S0 
G1 X5.59 Y18.51 Z27.00 F3500 
M42 P11 S255 
G1 X5.02 Y18.80 Z27.00 F3500 
M42 P11 S0 
G1 X5.02 Y18.80 Z27.00 F3500 
M42 P11 S255 
G1 X4.68 Y18.93 Z27.00 F3500 
M42 P11 S0 
G1 X4.68 Y18.93 Z27.00 F3500 
M42 P11 S255 
G1 X4.14 Y19.21 Z27.00 F3500 
M42 P11 S0 
G1 X4.14 Y19.21 Z27.00 F3500 
M42 P11 S255 
G1 X3.73 Y19.36 Z27.00 F3500 
M42 P11 S0 
G1 X3.73 Y19.36 Z27.00 F3500 
M42 P11 S255 
G1 X3.39 Y19.57 Z27.00 F3500 
M42 P11 S0 
G1 X3.39 Y19.57 Z27.00 F3500 
M42 P11 S255 
G1 X2.80 Y19.86 Z27.00 F3500 
M42 P11 S0 
G1 X2.80 Y19.86 Z27.00 F3500 
M42 P11 S255 
G1 X2.55 Y19.95 Z27.00 F3500 
M42 P11 S0 
G1 X2.55 Y19.95 Z27.00 F3500 
M42 P11 S255 
G1 X1.18 Y20.21 Z27.00 F3500 
M42 P11 S0 
G1 X1.18 Y20.21 Z27.00 F3500 
M42 P11 S255 
G1 X1.09 Y20.22 Z27.00 F3500 
M42 P11 S0 
G1 X1.09 Y20.22 Z27.00 F3500 
M42 P11 S255 
G1 X0.72 Y20.24 Z27.00 F3500 
M42 P11 S0 
G1 X0.72 Y20.24 Z27.00 F3500 
M42 P11 S255 
G1 X-0.64 Y20.29 Z27.00 F3500 
M42 P11 S0 
G1 X-0.64 Y20.29 Z27.00 F3500 
M42 P11 S255 
G1 X-1.05 Y20.28 Z27.00 F3500 
M42 P11 S0 
G1 X-1.05 Y20.28 Z27.00 F3500 
M42 P11 S255 
G1 X-2.08 Y20.39 Z27.00 F3500 
M42 P11 S0 
G1 X-2.08 Y20.39 Z27.00 F3500 
M42 P11 S255 
G1 X-2.93 Y20.52 Z27.00 F3500 
M42 P11 S0 
G1 X-2.93 Y20.52 Z27.00 F3500 
M42 P11 S255 
G1 X-3.09 Y20.56 Z27.00 F3500 
M42 P11 S0 
G1 X-3.09 Y20.56 Z27.00 F3500 
M42 P11 S255 
G1 X-4.21 Y20.86 Z27.00 F3500 
M42 P11 S0 
G1 X-4.21 Y20.86 Z27.00 F3500 
M42 P11 S255 
G1 X-4.24 Y20.87 Z27.00 F3500 
M42 P11 S0 
G1 X-4.24 Y20.87 Z27.00 F3500 
M42 P11 S255 
G1 X-4.47 Y20.93 Z27.00 F3500 
M42 P11 S0 
G1 X-4.47 Y20.93 Z27.00 F3500 
M42 P11 S255 
G1 X-5.54 Y21.22 Z27.00 F3500 
M42 P11 S0 
G1 X-5.54 Y21.22 Z27.00 F3500 
M42 P11 S255 
G1 X-5.69 Y21.25 Z27.00 F3500 
M42 P11 S0 
G1 X-5.69 Y21.25 Z27.00 F3500 
M42 P11 S255 
G1 X-6.79 Y21.48 Z27.00 F3500 
M42 P11 S0 
G1 X-6.79 Y21.48 Z27.00 F3500 
M42 P11 S255 
G1 X-7.61 Y21.60 Z27.00 F3500 
M42 P11 S0 
G1 X-7.61 Y21.60 Z27.00 F3500 
M42 P11 S255 
G1 X-8.16 Y21.66 Z27.00 F3500 
M42 P11 S0 
G1 X-8.16 Y21.66 Z27.00 F3500 
M42 P11 S255 
G1 X-8.42 Y21.71 Z27.00 F3500 
M42 P11 S0 
G1 X-8.42 Y21.71 Z27.00 F3500 
M42 P11 S255 
G1 X-9.96 Y22.05 Z27.00 F3500 
M42 P11 S0 
G1 X-9.96 Y22.05 Z27.00 F3500 
M42 P11 S255 
G1 X-10.67 Y22.32 Z27.00 F3500 
M42 P11 S0 
G1 X-10.67 Y22.32 Z27.00 F3500 
M42 P11 S255 
G1 X-11.25 Y22.59 Z27.00 F3500 
M42 P11 S0 
G1 X-11.25 Y22.59 Z27.00 F3500 
M42 P11 S255 
G1 X-12.35 Y23.20 Z27.00 F3500 
M42 P11 S0 
G1 X-12.35 Y23.20 Z27.00 F3500 
M42 P11 S255 
G1 X-12.71 Y23.45 Z27.00 F3500 
M42 P11 S0 
G1 X-12.71 Y23.45 Z27.00 F3500 
M42 P11 S255 
G1 X-13.91 Y24.22 Z27.00 F3500 
M42 P11 S0 
G1 X-13.91 Y24.22 Z27.00 F3500 
M42 P11 S255 
G1 X-14.23 Y24.42 Z27.00 F3500 
M42 P11 S0 
G1 X-14.23 Y24.42 Z27.00 F3500 
M42 P11 S255 
G1 X-14.40 Y24.53 Z27.00 F3500 
M42 P11 S0 
G1 X-14.40 Y24.53 Z27.00 F3500 
M42 P11 S255 
G1 X-15.77 Y25.33 Z27.00 F3500 
M42 P11 S0 
G1 X-15.88 Y-28.18 Z30.00 F3500 
M42 P11 S255 
G1 X-15.62 Y-28.00 Z30.00 F3500 
M42 P11 S0 
G1 X-15.62 Y-28.00 Z30.00 F3500 
M42 P11 S255 
G1 X-14.49 Y-27.32 Z30.00 F3500 
M42 P11 S0 
G1 X-14.49 Y-27.32 Z30.00 F3500 
M42 P11 S255 
G1 X-13.47 Y-26.90 Z30.00 F3500 
M42 P11 S0 
G1 X-13.47 Y-26.90 Z30.00 F3500 
M42 P11 S255 
G1 X-12.93 Y-26.71 Z30.00 F3500 
M42 P11 S0 
G1 X-12.93 Y-26.71 Z30.00 F3500 
M42 P11 S255 
G1 X-11.51 Y-26.39 Z30.00 F3500 
M42 P11 S0 
G1 X-11.51 Y-26.39 Z30.00 F3500 
M42 P11 S255 
G1 X-11.28 Y-26.34 Z30.00 F3500 
M42 P11 S0 
G1 X-11.28 Y-26.34 Z30.00 F3500 
M42 P11 S255 
G1 X-9.38 Y-26.11 Z30.00 F3500 
M42 P11 S0 
G1 X-9.38 Y-26.11 Z30.00 F3500 
M42 P11 S255 
G1 X-9.36 Y-26.11 Z30.00 F3500 
M42 P11 S0 
G1 X-9.36 Y-26.11 Z30.00 F3500 
M42 P11 S255 
G1 X-9.10 Y-26.09 Z30.00 F3500 
M42 P11 S0 
G1 X-9.10 Y-26.09 Z30.00 F3500 
M42 P11 S255 
G1 X-7.21 Y-25.97 Z30.00 F3500 
M42 P11 S0 
G1 X-7.21 Y-25.97 Z30.00 F3500 
M42 P11 S255 
G1 X-7.08 Y-25.97 Z30.00 F3500 
M42 P11 S0 
G1 X-7.08 Y-25.97 Z30.00 F3500 
M42 P11 S255 
G1 X-6.05 Y-26.00 Z30.00 F3500 
M42 P11 S0 
G1 X-6.05 Y-26.00 Z30.00 F3500 
M42 P11 S255 
G1 X-4.98 Y-26.02 Z30.00 F3500 
M42 P11 S0 
G1 X-4.98 Y-26.02 Z30.00 F3500 
M42 P11 S255 
G1 X-4.87 Y-26.01 Z30.00 F3500 
M42 P11 S0 
G1 X-4.87 Y-26.01 Z30.00 F3500 
M42 P11 S255 
G1 X-3.93 Y-26.09 Z30.00 F3500 
M42 P11 S0 
G1 X-3.93 Y-26.09 Z30.00 F3500 
M42 P11 S255 
G1 X-3.12 Y-26.17 Z30.00 F3500 
M42 P11 S0 
G1 X-3.12 Y-26.17 Z30.00 F3500 
M42 P11 S255 
G1 X-3.04 Y-26.19 Z30.00 F3500 
M42 P11 S0 
G1 X-3.04 Y-26.19 Z30.00 F3500 
M42 P11 S255 
G1 X-1.83 Y-26.35 Z30.00 F3500 
M42 P11 S0 
G1 X-1.83 Y-26.35 Z30.00 F3500 
M42 P11 S255 
G1 X-1.47 Y-26.44 Z30.00 F3500 
M42 P11 S0 
G1 X-1.47 Y-26.44 Z30.00 F3500 
M42 P11 S255 
G1 X-0.66 Y-26.54 Z30.00 F3500 
M42 P11 S0 
G1 X-0.66 Y-26.54 Z30.00 F3500 
M42 P11 S255 
G1 X0.07 Y-26.66 Z30.00 F3500 
M42 P11 S0 
G1 X0.07 Y-26.66 Z30.00 F3500 
M42 P11 S255 
G1 X0.36 Y-26.68 Z30.00 F3500 
M42 P11 S0 
G1 X0.36 Y-26.68 Z30.00 F3500 
M42 P11 S255 
G1 X0.87 Y-26.71 Z30.00 F3500 
M42 P11 S0 
G1 X0.87 Y-26.71 Z30.00 F3500 
M42 P11 S255 
G1 X1.20 Y-26.72 Z30.00 F3500 
M42 P11 S0 
G1 X1.20 Y-26.72 Z30.00 F3500 
M42 P11 S255 
G1 X1.35 Y-26.71 Z30.00 F3500 
M42 P11 S0 
G1 X1.35 Y-26.71 Z30.00 F3500 
M42 P11 S255 
G1 X1.99 Y-26.67 Z30.00 F3500 
M42 P11 S0 
G1 X1.99 Y-26.67 Z30.00 F3500 
M42 P11 S255 
G1 X2.38 Y-26.63 Z30.00 F3500 
M42 P11 S0 
G1 X2.38 Y-26.63 Z30.00 F3500 
M42 P11 S255 
G1 X2.90 Y-26.57 Z30.00 F3500 
M42 P11 S0 
G1 X2.90 Y-26.57 Z30.00 F3500 
M42 P11 S255 
G1 X3.25 Y-26.51 Z30.00 F3500 
M42 P11 S0 
G1 X3.25 Y-26.51 Z30.00 F3500 
M42 P11 S255 
G1 X3.60 Y-26.38 Z30.00 F3500 
M42 P11 S0 
G1 X3.60 Y-26.38 Z30.00 F3500 
M42 P11 S255 
G1 X4.04 Y-26.24 Z30.00 F3500 
M42 P11 S0 
G1 X4.04 Y-26.24 Z30.00 F3500 
M42 P11 S255 
G1 X4.42 Y-26.02 Z30.00 F3500 
M42 P11 S0 
G1 X4.42 Y-26.02 Z30.00 F3500 
M42 P11 S255 
G1 X5.23 Y-25.66 Z30.00 F3500 
M42 P11 S0 
G1 X5.23 Y-25.66 Z30.00 F3500 
M42 P11 S255 
G1 X5.27 Y-25.64 Z30.00 F3500 
M42 P11 S0 
G1 X5.27 Y-25.64 Z30.00 F3500 
M42 P11 S255 
G1 X5.34 Y-25.57 Z30.00 F3500 
M42 P11 S0 
G1 X5.34 Y-25.57 Z30.00 F3500 
M42 P11 S255 
G1 X6.10 Y-24.85 Z30.00 F3500 
M42 P11 S0 
G1 X6.10 Y-24.85 Z30.00 F3500 
M42 P11 S255 
G1 X6.29 Y-24.64 Z30.00 F3500 
M42 P11 S0 
G1 X6.29 Y-24.64 Z30.00 F3500 
M42 P11 S255 
G1 X6.78 Y-23.91 Z30.00 F3500 
M42 P11 S0 
G1 X6.78 Y-23.91 Z30.00 F3500 
M42 P11 S255 
G1 X6.90 Y-23.74 Z30.00 F3500 
M42 P11 S0 
G1 X6.90 Y-23.74 Z30.00 F3500 
M42 P11 S255 
G1 X6.95 Y-23.65 Z30.00 F3500 
M42 P11 S0 
G1 X6.95 Y-23.65 Z30.00 F3500 
M42 P11 S255 
G1 X7.41 Y-22.79 Z30.00 F3500 
M42 P11 S0 
G1 X7.41 Y-22.79 Z30.00 F3500 
M42 P11 S255 
G1 X7.67 Y-22.47 Z30.00 F3500 
M42 P11 S0 
G1 X7.67 Y-22.47 Z30.00 F3500 
M42 P11 S255 
G1 X8.16 Y-21.96 Z30.00 F3500 
M42 P11 S0 
G1 X8.16 Y-21.96 Z30.00 F3500 
M42 P11 S255 
G1 X8.71 Y-21.62 Z30.00 F3500 
M42 P11 S0 
G1 X8.71 Y-21.62 Z30.00 F3500 
M42 P11 S255 
G1 X9.31 Y-21.29 Z30.00 F3500 
M42 P11 S0 
G1 X9.31 Y-21.29 Z30.00 F3500 
M42 P11 S255 
G1 X9.98 Y-21.06 Z30.00 F3500 
M42 P11 S0 
G1 X9.98 Y-21.06 Z30.00 F3500 
M42 P11 S255 
G1 X11.60 Y-20.56 Z30.00 F3500 
M42 P11 S0 
G1 X11.60 Y-20.56 Z30.00 F3500 
M42 P11 S255 
G1 X11.61 Y-20.55 Z30.00 F3500 
M42 P11 S0 
G1 X11.61 Y-20.55 Z30.00 F3500 
M42 P11 S255 
G1 X11.62 Y-20.55 Z30.00 F3500 
M42 P11 S0 
G1 X11.62 Y-20.55 Z30.00 F3500 
M42 P11 S255 
G1 X13.40 Y-19.99 Z30.00 F3500 
M42 P11 S0 
G1 X13.40 Y-19.99 Z30.00 F3500 
M42 P11 S255 
G1 X13.54 Y-19.97 Z30.00 F3500 
M42 P11 S0 
G1 X13.54 Y-19.97 Z30.00 F3500 
M42 P11 S255 
G1 X13.92 Y-19.89 Z30.00 F3500 
M42 P11 S0 
G1 X13.92 Y-19.89 Z30.00 F3500 
M42 P11 S255 
G1 X14.87 Y-19.56 Z30.00 F3500 
M42 P11 S0 
G1 X14.87 Y-19.56 Z30.00 F3500 
M42 P11 S255 
G1 X15.36 Y-19.45 Z30.00 F3500 
M42 P11 S0 
G1 X15.36 Y-19.45 Z30.00 F3500 
M42 P11 S255 
G1 X15.80 Y-19.34 Z30.00 F3500 
M42 P11 S0 
G1 X15.80 Y-19.34 Z30.00 F3500 
M42 P11 S255 
G1 X16.60 Y-19.09 Z30.00 F3500 
M42 P11 S0 
G1 X16.60 Y-19.09 Z30.00 F3500 
M42 P11 S255 
G1 X16.79 Y-19.05 Z30.00 F3500 
M42 P11 S0 
G1 X16.79 Y-19.05 Z30.00 F3500 
M42 P11 S255 
G1 X17.15 Y-18.91 Z30.00 F3500 
M42 P11 S0 
G1 X17.15 Y-18.91 Z30.00 F3500 
M42 P11 S255 
G1 X17.69 Y-18.64 Z30.00 F3500 
M42 P11 S0 
G1 X17.69 Y-18.64 Z30.00 F3500 
M42 P11 S255 
G1 X18.38 Y-17.89 Z30.00 F3500 
M42 P11 S0 
G1 X18.38 Y-17.89 Z30.00 F3500 
M42 P11 S255 
G1 X18.48 Y-17.80 Z30.00 F3500 
M42 P11 S0 
G1 X18.48 Y-17.80 Z30.00 F3500 
M42 P11 S255 
G1 X18.62 Y-17.62 Z30.00 F3500 
M42 P11 S0 
G1 X18.62 Y-17.62 Z30.00 F3500 
M42 P11 S255 
G1 X19.18 Y-16.75 Z30.00 F3500 
M42 P11 S0 
G1 X19.18 Y-16.75 Z30.00 F3500 
M42 P11 S255 
G1 X19.69 Y-16.01 Z30.00 F3500 
M42 P11 S0 
G1 X19.69 Y-16.01 Z30.00 F3500 
M42 P11 S255 
G1 X19.89 Y-15.75 Z30.00 F3500 
M42 P11 S0 
G1 X19.89 Y-15.75 Z30.00 F3500 
M42 P11 S255 
G1 X20.13 Y-15.42 Z30.00 F3500 
M42 P11 S0 
G1 X20.13 Y-15.42 Z30.00 F3500 
M42 P11 S255 
G1 X20.65 Y-14.75 Z30.00 F3500 
M42 P11 S0 
G1 X20.65 Y-14.75 Z30.00 F3500 
M42 P11 S255 
G1 X21.40 Y-13.93 Z30.00 F3500 
M42 P11 S0 
G1 X21.40 Y-13.93 Z30.00 F3500 
M42 P11 S255 
G1 X21.68 Y-13.67 Z30.00 F3500 
M42 P11 S0 
G1 X21.68 Y-13.67 Z30.00 F3500 
M42 P11 S255 
G1 X22.67 Y-12.72 Z30.00 F3500 
M42 P11 S0 
G1 X22.67 Y-12.72 Z30.00 F3500 
M42 P11 S255 
G1 X22.96 Y-12.51 Z30.00 F3500 
M42 P11 S0 
G1 X22.96 Y-12.51 Z30.00 F3500 
M42 P11 S255 
G1 X23.93 Y-11.61 Z30.00 F3500 
M42 P11 S0 
G1 X23.93 Y-11.61 Z30.00 F3500 
M42 P11 S255 
G1 X24.44 Y-11.18 Z30.00 F3500 
M42 P11 S0 
G1 X24.44 Y-11.18 Z30.00 F3500 
M42 P11 S255 
G1 X25.36 Y-10.07 Z30.00 F3500 
M42 P11 S0 
G1 X25.36 Y-10.07 Z30.00 F3500 
M42 P11 S255 
G1 X25.68 Y-9.64 Z30.00 F3500 
M42 P11 S0 
G1 X25.68 Y-9.64 Z30.00 F3500 
M42 P11 S255 
G1 X26.15 Y-8.63 Z30.00 F3500 
M42 P11 S0 
G1 X26.15 Y-8.63 Z30.00 F3500 
M42 P11 S255 
G1 X26.38 Y-8.00 Z30.00 F3500 
M42 P11 S0 
G1 X26.38 Y-8.00 Z30.00 F3500 
M42 P11 S255 
G1 X26.52 Y-7.15 Z30.00 F3500 
M42 P11 S0 
G1 X26.52 Y-7.15 Z30.00 F3500 
M42 P11 S255 
G1 X26.54 Y-6.41 Z30.00 F3500 
M42 P11 S0 
G1 X26.54 Y-6.41 Z30.00 F3500 
M42 P11 S255 
G1 X26.52 Y-6.11 Z30.00 F3500 
M42 P11 S0 
G1 X26.52 Y-6.11 Z30.00 F3500 
M42 P11 S255 
G1 X26.35 Y-4.94 Z30.00 F3500 
M42 P11 S0 
G1 X26.35 Y-4.94 Z30.00 F3500 
M42 P11 S255 
G1 X26.32 Y-4.07 Z30.00 F3500 
M42 P11 S0 
G1 X26.32 Y-4.07 Z30.00 F3500 
M42 P11 S255 
G1 X26.27 Y-3.47 Z30.00 F3500 
M42 P11 S0 
G1 X26.27 Y-3.47 Z30.00 F3500 
M42 P11 S255 
G1 X26.47 Y-2.20 Z30.00 F3500 
M42 P11 S0 
G1 X26.47 Y-2.20 Z30.00 F3500 
M42 P11 S255 
G1 X26.48 Y-2.00 Z30.00 F3500 
M42 P11 S0 
G1 X26.48 Y-2.00 Z30.00 F3500 
M42 P11 S255 
G1 X26.50 Y-1.91 Z30.00 F3500 
M42 P11 S0 
G1 X26.50 Y-1.91 Z30.00 F3500 
M42 P11 S255 
G1 X26.95 Y-0.59 Z30.00 F3500 
M42 P11 S0 
G1 X26.95 Y-0.59 Z30.00 F3500 
M42 P11 S255 
G1 X27.44 Y0.05 Z30.00 F3500 
M42 P11 S0 
G1 X27.44 Y0.05 Z30.00 F3500 
M42 P11 S255 
G1 X27.54 Y0.28 Z30.00 F3500 
M42 P11 S0 
G1 X27.54 Y0.28 Z30.00 F3500 
M42 P11 S255 
G1 X27.65 Y0.53 Z30.00 F3500 
M42 P11 S0 
G1 X27.65 Y0.53 Z30.00 F3500 
M42 P11 S255 
G1 X27.89 Y1.37 Z30.00 F3500 
M42 P11 S0 
G1 X27.89 Y1.37 Z30.00 F3500 
M42 P11 S255 
G1 X27.93 Y1.79 Z30.00 F3500 
M42 P11 S0 
G1 X27.93 Y1.79 Z30.00 F3500 
M42 P11 S255 
G1 X27.88 Y2.19 Z30.00 F3500 
M42 P11 S0 
G1 X27.88 Y2.19 Z30.00 F3500 
M42 P11 S255 
G1 X27.63 Y2.97 Z30.00 F3500 
M42 P11 S0 
G1 X27.63 Y2.97 Z30.00 F3500 
M42 P11 S255 
G1 X27.20 Y3.88 Z30.00 F3500 
M42 P11 S0 
G1 X27.20 Y3.88 Z30.00 F3500 
M42 P11 S255 
G1 X26.84 Y4.23 Z30.00 F3500 
M42 P11 S0 
G1 X26.84 Y4.23 Z30.00 F3500 
M42 P11 S255 
G1 X25.81 Y5.53 Z30.00 F3500 
M42 P11 S0 
G1 X25.81 Y5.53 Z30.00 F3500 
M42 P11 S255 
G1 X25.76 Y5.57 Z30.00 F3500 
M42 P11 S0 
G1 X25.76 Y5.57 Z30.00 F3500 
M42 P11 S255 
G1 X25.74 Y5.61 Z30.00 F3500 
M42 P11 S0 
G1 X25.74 Y5.61 Z30.00 F3500 
M42 P11 S255 
G1 X24.95 Y6.53 Z30.00 F3500 
M42 P11 S0 
G1 X24.95 Y6.53 Z30.00 F3500 
M42 P11 S255 
G1 X24.87 Y6.72 Z30.00 F3500 
M42 P11 S0 
G1 X24.87 Y6.72 Z30.00 F3500 
M42 P11 S255 
G1 X24.45 Y7.07 Z30.00 F3500 
M42 P11 S0 
G1 X24.45 Y7.07 Z30.00 F3500 
M42 P11 S255 
G1 X24.24 Y7.43 Z30.00 F3500 
M42 P11 S0 
G1 X24.24 Y7.43 Z30.00 F3500 
M42 P11 S255 
G1 X24.10 Y7.69 Z30.00 F3500 
M42 P11 S0 
G1 X24.10 Y7.69 Z30.00 F3500 
M42 P11 S255 
G1 X23.98 Y8.00 Z30.00 F3500 
M42 P11 S0 
G1 X23.98 Y8.00 Z30.00 F3500 
M42 P11 S255 
G1 X23.80 Y8.26 Z30.00 F3500 
M42 P11 S0 
G1 X23.80 Y8.26 Z30.00 F3500 
M42 P11 S255 
G1 X23.72 Y8.38 Z30.00 F3500 
M42 P11 S0 
G1 X23.72 Y8.38 Z30.00 F3500 
M42 P11 S255 
G1 X23.44 Y8.77 Z30.00 F3500 
M42 P11 S0 
G1 X23.44 Y8.77 Z30.00 F3500 
M42 P11 S255 
G1 X23.35 Y8.86 Z30.00 F3500 
M42 P11 S0 
G1 X23.35 Y8.86 Z30.00 F3500 
M42 P11 S255 
G1 X23.01 Y9.07 Z30.00 F3500 
M42 P11 S0 
G1 X23.01 Y9.07 Z30.00 F3500 
M42 P11 S255 
G1 X22.81 Y9.24 Z30.00 F3500 
M42 P11 S0 
G1 X22.81 Y9.24 Z30.00 F3500 
M42 P11 S255 
G1 X22.39 Y9.51 Z30.00 F3500 
M42 P11 S0 
G1 X22.39 Y9.51 Z30.00 F3500 
M42 P11 S255 
G1 X21.85 Y9.97 Z30.00 F3500 
M42 P11 S0 
G1 X21.85 Y9.97 Z30.00 F3500 
M42 P11 S255 
G1 X21.69 Y10.08 Z30.00 F3500 
M42 P11 S0 
G1 X21.69 Y10.08 Z30.00 F3500 
M42 P11 S255 
G1 X21.58 Y10.16 Z30.00 F3500 
M42 P11 S0 
G1 X21.58 Y10.16 Z30.00 F3500 
M42 P11 S255 
G1 X20.65 Y10.69 Z30.00 F3500 
M42 P11 S0 
G1 X20.65 Y10.69 Z30.00 F3500 
M42 P11 S255 
G1 X20.30 Y10.97 Z30.00 F3500 
M42 P11 S0 
G1 X20.30 Y10.97 Z30.00 F3500 
M42 P11 S255 
G1 X19.66 Y11.63 Z30.00 F3500 
M42 P11 S0 
G1 X19.66 Y11.63 Z30.00 F3500 
M42 P11 S255 
G1 X19.29 Y11.94 Z30.00 F3500 
M42 P11 S0 
G1 X19.29 Y11.94 Z30.00 F3500 
M42 P11 S255 
G1 X19.10 Y12.13 Z30.00 F3500 
M42 P11 S0 
G1 X19.10 Y12.13 Z30.00 F3500 
M42 P11 S255 
G1 X18.42 Y12.80 Z30.00 F3500 
M42 P11 S0 
G1 X18.42 Y12.80 Z30.00 F3500 
M42 P11 S255 
G1 X17.83 Y13.37 Z30.00 F3500 
M42 P11 S0 
G1 X17.83 Y13.37 Z30.00 F3500 
M42 P11 S255 
G1 X17.69 Y13.49 Z30.00 F3500 
M42 P11 S0 
G1 X17.69 Y13.49 Z30.00 F3500 
M42 P11 S255 
G1 X17.40 Y13.69 Z30.00 F3500 
M42 P11 S0 
G1 X17.40 Y13.69 Z30.00 F3500 
M42 P11 S255 
G1 X16.92 Y13.97 Z30.00 F3500 
M42 P11 S0 
G1 X16.92 Y13.97 Z30.00 F3500 
M42 P11 S255 
G1 X16.48 Y14.10 Z30.00 F3500 
M42 P11 S0 
G1 X16.48 Y14.10 Z30.00 F3500 
M42 P11 S255 
G1 X15.95 Y14.26 Z30.00 F3500 
M42 P11 S0 
G1 X15.95 Y14.26 Z30.00 F3500 
M42 P11 S255 
G1 X15.64 Y14.33 Z30.00 F3500 
M42 P11 S0 
G1 X15.64 Y14.33 Z30.00 F3500 
M42 P11 S255 
G1 X14.66 Y14.44 Z30.00 F3500 
M42 P11 S0 
G1 X14.66 Y14.44 Z30.00 F3500 
M42 P11 S255 
G1 X13.97 Y14.47 Z30.00 F3500 
M42 P11 S0 
G1 X13.97 Y14.47 Z30.00 F3500 
M42 P11 S255 
G1 X12.26 Y14.56 Z30.00 F3500 
M42 P11 S0 
G1 X12.26 Y14.56 Z30.00 F3500 
M42 P11 S255 
G1 X12.03 Y14.58 Z30.00 F3500 
M42 P11 S0 
G1 X12.03 Y14.58 Z30.00 F3500 
M42 P11 S255 
G1 X11.85 Y14.62 Z30.00 F3500 
M42 P11 S0 
G1 X11.85 Y14.62 Z30.00 F3500 
M42 P11 S255 
G1 X10.13 Y14.95 Z30.00 F3500 
M42 P11 S0 
G1 X10.13 Y14.95 Z30.00 F3500 
M42 P11 S255 
G1 X10.13 Y14.95 Z30.00 F3500 
M42 P11 S0 
G1 X10.13 Y14.95 Z30.00 F3500 
M42 P11 S255 
G1 X10.12 Y14.96 Z30.00 F3500 
M42 P11 S0 
G1 X10.12 Y14.96 Z30.00 F3500 
M42 P11 S255 
G1 X8.72 Y15.63 Z30.00 F3500 
M42 P11 S0 
G1 X8.72 Y15.63 Z30.00 F3500 
M42 P11 S255 
G1 X8.47 Y15.76 Z30.00 F3500 
M42 P11 S0 
G1 X8.47 Y15.76 Z30.00 F3500 
M42 P11 S255 
G1 X7.36 Y16.69 Z30.00 F3500 
M42 P11 S0 
G1 X7.36 Y16.69 Z30.00 F3500 
M42 P11 S255 
G1 X7.12 Y16.89 Z30.00 F3500 
M42 P11 S0 
G1 X7.12 Y16.89 Z30.00 F3500 
M42 P11 S255 
G1 X6.24 Y17.84 Z30.00 F3500 
M42 P11 S0 
G1 X6.24 Y17.84 Z30.00 F3500 
M42 P11 S255 
G1 X6.18 Y17.91 Z30.00 F3500 
M42 P11 S0 
G1 X6.18 Y17.91 Z30.00 F3500 
M42 P11 S255 
G1 X5.99 Y18.09 Z30.00 F3500 
M42 P11 S0 
G1 X5.99 Y18.09 Z30.00 F3500 
M42 P11 S255 
G1 X5.52 Y18.56 Z30.00 F3500 
M42 P11 S0 
G1 X5.52 Y18.56 Z30.00 F3500 
M42 P11 S255 
G1 X5.25 Y18.71 Z30.00 F3500 
M42 P11 S0 
G1 X5.25 Y18.71 Z30.00 F3500 
M42 P11 S255 
G1 X4.75 Y18.98 Z30.00 F3500 
M42 P11 S0 
G1 X4.75 Y18.98 Z30.00 F3500 
M42 P11 S255 
G1 X3.82 Y19.35 Z30.00 F3500 
M42 P11 S0 
G1 X3.82 Y19.35 Z30.00 F3500 
M42 P11 S255 
G1 X3.35 Y19.51 Z30.00 F3500 
M42 P11 S0 
G1 X3.35 Y19.51 Z30.00 F3500 
M42 P11 S255 
G1 X3.14 Y19.56 Z30.00 F3500 
M42 P11 S0 
G1 X3.14 Y19.56 Z30.00 F3500 
M42 P11 S255 
G1 X1.47 Y20.19 Z30.00 F3500 
M42 P11 S0 
G1 X1.47 Y20.19 Z30.00 F3500 
M42 P11 S255 
G1 X1.16 Y20.25 Z30.00 F3500 
M42 P11 S0 
G1 X1.16 Y20.25 Z30.00 F3500 
M42 P11 S255 
G1 X-0.07 Y20.73 Z30.00 F3500 
M42 P11 S0 
G1 X-0.07 Y20.73 Z30.00 F3500 
M42 P11 S255 
G1 X-0.58 Y20.84 Z30.00 F3500 
M42 P11 S0 
G1 X-0.58 Y20.84 Z30.00 F3500 
M42 P11 S255 
G1 X-1.53 Y21.24 Z30.00 F3500 
M42 P11 S0 
G1 X-1.53 Y21.24 Z30.00 F3500 
M42 P11 S255 
G1 X-2.32 Y21.45 Z30.00 F3500 
M42 P11 S0 
G1 X-2.32 Y21.45 Z30.00 F3500 
M42 P11 S255 
G1 X-3.15 Y21.72 Z30.00 F3500 
M42 P11 S0 
G1 X-3.15 Y21.72 Z30.00 F3500 
M42 P11 S255 
G1 X-3.78 Y21.92 Z30.00 F3500 
M42 P11 S0 
G1 X-3.78 Y21.92 Z30.00 F3500 
M42 P11 S255 
G1 X-4.39 Y22.16 Z30.00 F3500 
M42 P11 S0 
G1 X-4.39 Y22.16 Z30.00 F3500 
M42 P11 S255 
G1 X-5.77 Y22.66 Z30.00 F3500 
M42 P11 S0 
G1 X-5.77 Y22.66 Z30.00 F3500 
M42 P11 S255 
G1 X-5.77 Y22.66 Z30.00 F3500 
M42 P11 S0 
G1 X-5.77 Y22.66 Z30.00 F3500 
M42 P11 S255 
G1 X-5.78 Y22.66 Z30.00 F3500 
M42 P11 S0 
G1 X-5.78 Y22.66 Z30.00 F3500 
M42 P11 S255 
G1 X-7.19 Y23.09 Z30.00 F3500 
M42 P11 S0 
G1 X-7.19 Y23.09 Z30.00 F3500 
M42 P11 S255 
G1 X-7.49 Y23.15 Z30.00 F3500 
M42 P11 S0 
G1 X-7.49 Y23.15 Z30.00 F3500 
M42 P11 S255 
G1 X-8.84 Y23.41 Z30.00 F3500 
M42 P11 S0 
G1 X-8.84 Y23.41 Z30.00 F3500 
M42 P11 S255 
G1 X-9.36 Y23.50 Z30.00 F3500 
M42 P11 S0 
G1 X-9.36 Y23.50 Z30.00 F3500 
M42 P11 S255 
G1 X-10.80 Y23.87 Z30.00 F3500 
M42 P11 S0 
G1 X-10.80 Y23.87 Z30.00 F3500 
M42 P11 S255 
G1 X-11.62 Y24.19 Z30.00 F3500 
M42 P11 S0 
G1 X-11.62 Y24.19 Z30.00 F3500 
M42 P11 S255 
G1 X-13.07 Y24.93 Z30.00 F3500 
M42 P11 S0 
G1 X-13.07 Y24.93 Z30.00 F3500 
M42 P11 S255 
G1 X-13.40 Y25.11 Z30.00 F3500 
M42 P11 S0 
G1 X-13.40 Y25.11 Z30.00 F3500 
M42 P11 S255 
G1 X-13.83 Y25.38 Z30.00 F3500 
M42 P11 S0 
G1 X-13.83 Y25.38 Z30.00 F3500 
M42 P11 S255 
G1 X-15.07 Y26.23 Z30.00 F3500 
M42 P11 S0 
G1 X-15.07 Y26.23 Z30.00 F3500 
M42 P11 S255 
G1 X-16.25 Y27.12 Z30.00 F3500 
M42 P11 S0 
G1 X-16.34 Y27.17 Z30.00 F3500 
M42 P11 S255 
G1 X-17.45 Y27.83 Z30.00 F3500 
M42 P11 S0 
G1 X-17.45 Y27.83 Z30.00 F3500 
M42 P11 S255 
G1 X-17.90 Y28.02 Z30.00 F3500 
M42 P11 S0 
G1 X-23.93 Y30.80 Z30.00 F3500 
M42 P11 S255 
G1 X-24.25 Y30.97 Z30.00 F3500 
M42 P11 S0 
G1 X-23.82 Y-32.37 Z33.00 F3500 
M42 P11 S255 
G1 X-23.23 Y-32.19 Z33.00 F3500 
M42 P11 S0 
G1 X-23.23 Y-32.19 Z33.00 F3500 
M42 P11 S255 
G1 X-22.53 Y-32.01 Z33.00 F3500 
M42 P11 S0 
G1 X-22.53 Y-32.01 Z33.00 F3500 
M42 P11 S255 
G1 X-21.91 Y-31.77 Z33.00 F3500 
M42 P11 S0 
G1 X-21.91 Y-31.77 Z33.00 F3500 
M42 P11 S255 
G1 X-20.98 Y-31.51 Z33.00 F3500 
M42 P11 S0 
G1 X-20.98 Y-31.51 Z33.00 F3500 
M42 P11 S255 
G1 X-19.86 Y-31.18 Z33.00 F3500 
M42 P11 S0 
G1 X-19.19 Y-30.99 Z33.00 F3500 
M42 P11 S255 
G1 X-18.33 Y-30.81 Z33.00 F3500 
M42 P11 S0 
G1 X-18.33 Y-30.81 Z33.00 F3500 
M42 P11 S255 
G1 X-17.53 Y-30.61 Z33.00 F3500 
M42 P11 S0 
G1 X-17.53 Y-30.61 Z33.00 F3500 
M42 P11 S255 
G1 X-17.23 Y-30.55 Z33.00 F3500 
M42 P11 S0 
G1 X-17.23 Y-30.55 Z33.00 F3500 
M42 P11 S255 
G1 X-16.54 Y-30.29 Z33.00 F3500 
M42 P11 S0 
G1 X-16.54 Y-30.29 Z33.00 F3500 
M42 P11 S255 
G1 X-15.80 Y-29.97 Z33.00 F3500 
M42 P11 S0 
G1 X-15.80 Y-29.97 Z33.00 F3500 
M42 P11 S255 
G1 X-15.51 Y-29.81 Z33.00 F3500 
M42 P11 S0 
G1 X-15.51 Y-29.81 Z33.00 F3500 
M42 P11 S255 
G1 X-14.32 Y-29.14 Z33.00 F3500 
M42 P11 S0 
G1 X-14.32 Y-29.14 Z33.00 F3500 
M42 P11 S255 
G1 X-13.18 Y-28.60 Z33.00 F3500 
M42 P11 S0 
G1 X-13.18 Y-28.60 Z33.00 F3500 
M42 P11 S255 
G1 X-13.02 Y-28.52 Z33.00 F3500 
M42 P11 S0 
G1 X-13.02 Y-28.52 Z33.00 F3500 
M42 P11 S255 
G1 X-12.90 Y-28.49 Z33.00 F3500 
M42 P11 S0 
G1 X-12.90 Y-28.49 Z33.00 F3500 
M42 P11 S255 
G1 X-11.37 Y-28.03 Z33.00 F3500 
M42 P11 S0 
G1 X-11.37 Y-28.03 Z33.00 F3500 
M42 P11 S255 
G1 X-10.65 Y-27.91 Z33.00 F3500 
M42 P11 S0 
G1 X-10.65 Y-27.91 Z33.00 F3500 
M42 P11 S255 
G1 X-9.07 Y-27.57 Z33.00 F3500 
M42 P11 S0 
G1 X-9.07 Y-27.57 Z33.00 F3500 
M42 P11 S255 
G1 X-8.26 Y-27.43 Z33.00 F3500 
M42 P11 S0 
G1 X-8.26 Y-27.43 Z33.00 F3500 
M42 P11 S255 
G1 X-6.05 Y-27.05 Z33.00 F3500 
M42 P11 S0 
G1 X-6.05 Y-27.05 Z33.00 F3500 
M42 P11 S255 
G1 X-5.91 Y-27.03 Z33.00 F3500 
M42 P11 S0 
G1 X-5.91 Y-27.03 Z33.00 F3500 
M42 P11 S255 
G1 X-5.38 Y-26.95 Z33.00 F3500 
M42 P11 S0 
G1 X-5.38 Y-26.95 Z33.00 F3500 
M42 P11 S255 
G1 X-4.01 Y-26.77 Z33.00 F3500 
M42 P11 S0 
G1 X-4.01 Y-26.77 Z33.00 F3500 
M42 P11 S255 
G1 X-3.72 Y-26.75 Z33.00 F3500 
M42 P11 S0 
G1 X-3.72 Y-26.75 Z33.00 F3500 
M42 P11 S255 
G1 X-2.53 Y-26.61 Z33.00 F3500 
M42 P11 S0 
G1 X-2.53 Y-26.61 Z33.00 F3500 
M42 P11 S255 
G1 X-2.15 Y-26.60 Z33.00 F3500 
M42 P11 S0 
G1 X-2.15 Y-26.60 Z33.00 F3500 
M42 P11 S255 
G1 X-1.34 Y-26.42 Z33.00 F3500 
M42 P11 S0 
G1 X-1.34 Y-26.42 Z33.00 F3500 
M42 P11 S255 
G1 X-1.10 Y-26.40 Z33.00 F3500 
M42 P11 S0 
G1 X-1.10 Y-26.40 Z33.00 F3500 
M42 P11 S255 
G1 X-0.48 Y-26.18 Z33.00 F3500 
M42 P11 S0 
G1 X-0.48 Y-26.18 Z33.00 F3500 
M42 P11 S255 
G1 X-0.30 Y-26.13 Z33.00 F3500 
M42 P11 S0 
G1 X-0.30 Y-26.13 Z33.00 F3500 
M42 P11 S255 
G1 X-0.19 Y-26.08 Z33.00 F3500 
M42 P11 S0 
G1 X-0.19 Y-26.08 Z33.00 F3500 
M42 P11 S255 
G1 X0.58 Y-25.94 Z33.00 F3500 
M42 P11 S0 
G1 X0.58 Y-25.94 Z33.00 F3500 
M42 P11 S255 
G1 X1.16 Y-25.75 Z33.00 F3500 
M42 P11 S0 
G1 X1.16 Y-25.75 Z33.00 F3500 
M42 P11 S255 
G1 X1.23 Y-25.73 Z33.00 F3500 
M42 P11 S0 
G1 X1.23 Y-25.73 Z33.00 F3500 
M42 P11 S255 
G1 X2.00 Y-25.60 Z33.00 F3500 
M42 P11 S0 
G1 X2.00 Y-25.60 Z33.00 F3500 
M42 P11 S255 
G1 X2.25 Y-25.52 Z33.00 F3500 
M42 P11 S0 
G1 X2.25 Y-25.52 Z33.00 F3500 
M42 P11 S255 
G1 X2.85 Y-25.40 Z33.00 F3500 
M42 P11 S0 
G1 X2.85 Y-25.40 Z33.00 F3500 
M42 P11 S255 
G1 X3.36 Y-25.23 Z33.00 F3500 
M42 P11 S0 
G1 X3.36 Y-25.23 Z33.00 F3500 
M42 P11 S255 
G1 X3.82 Y-25.03 Z33.00 F3500 
M42 P11 S0 
G1 X3.82 Y-25.03 Z33.00 F3500 
M42 P11 S255 
G1 X4.53 Y-24.53 Z33.00 F3500 
M42 P11 S0 
G1 X4.53 Y-24.53 Z33.00 F3500 
M42 P11 S255 
G1 X4.87 Y-24.28 Z33.00 F3500 
M42 P11 S0 
G1 X4.87 Y-24.28 Z33.00 F3500 
M42 P11 S255 
G1 X5.29 Y-23.86 Z33.00 F3500 
M42 P11 S0 
G1 X5.29 Y-23.86 Z33.00 F3500 
M42 P11 S255 
G1 X5.76 Y-23.37 Z33.00 F3500 
M42 P11 S0 
G1 X5.76 Y-23.37 Z33.00 F3500 
M42 P11 S255 
G1 X6.57 Y-22.69 Z33.00 F3500 
M42 P11 S0 
G1 X6.57 Y-22.69 Z33.00 F3500 
M42 P11 S255 
G1 X6.93 Y-22.38 Z33.00 F3500 
M42 P11 S0 
G1 X6.93 Y-22.38 Z33.00 F3500 
M42 P11 S255 
G1 X7.80 Y-21.97 Z33.00 F3500 
M42 P11 S0 
G1 X7.80 Y-21.97 Z33.00 F3500 
M42 P11 S255 
G1 X8.82 Y-21.58 Z33.00 F3500 
M42 P11 S0 
G1 X8.82 Y-21.58 Z33.00 F3500 
M42 P11 S255 
G1 X9.01 Y-21.49 Z33.00 F3500 
M42 P11 S0 
G1 X9.01 Y-21.49 Z33.00 F3500 
M42 P11 S255 
G1 X9.16 Y-21.45 Z33.00 F3500 
M42 P11 S0 
G1 X9.16 Y-21.45 Z33.00 F3500 
M42 P11 S255 
G1 X10.46 Y-21.24 Z33.00 F3500 
M42 P11 S0 
G1 X10.46 Y-21.24 Z33.00 F3500 
M42 P11 S255 
G1 X10.97 Y-21.18 Z33.00 F3500 
M42 P11 S0 
G1 X10.97 Y-21.18 Z33.00 F3500 
M42 P11 S255 
G1 X12.44 Y-21.06 Z33.00 F3500 
M42 P11 S0 
G1 X12.44 Y-21.06 Z33.00 F3500 
M42 P11 S255 
G1 X12.59 Y-21.04 Z33.00 F3500 
M42 P11 S0 
G1 X12.59 Y-21.04 Z33.00 F3500 
M42 P11 S255 
G1 X12.80 Y-21.03 Z33.00 F3500 
M42 P11 S0 
G1 X12.80 Y-21.03 Z33.00 F3500 
M42 P11 S255 
G1 X14.01 Y-20.95 Z33.00 F3500 
M42 P11 S0 
G1 X14.01 Y-20.95 Z33.00 F3500 
M42 P11 S255 
G1 X14.72 Y-20.90 Z33.00 F3500 
M42 P11 S0 
G1 X14.72 Y-20.90 Z33.00 F3500 
M42 P11 S255 
G1 X16.16 Y-20.73 Z33.00 F3500 
M42 P11 S0 
G1 X16.16 Y-20.73 Z33.00 F3500 
M42 P11 S255 
G1 X16.31 Y-20.71 Z33.00 F3500 
M42 P11 S0 
G1 X16.31 Y-20.71 Z33.00 F3500 
M42 P11 S255 
G1 X16.39 Y-20.70 Z33.00 F3500 
M42 P11 S0 
G1 X16.39 Y-20.70 Z33.00 F3500 
M42 P11 S255 
G1 X16.69 Y-20.66 Z33.00 F3500 
M42 P11 S0 
G1 X16.69 Y-20.66 Z33.00 F3500 
M42 P11 S255 
G1 X18.02 Y-20.46 Z33.00 F3500 
M42 P11 S0 
G1 X18.02 Y-20.46 Z33.00 F3500 
M42 P11 S255 
G1 X18.40 Y-20.37 Z33.00 F3500 
M42 P11 S0 
G1 X18.40 Y-20.37 Z33.00 F3500 
M42 P11 S255 
G1 X19.27 Y-20.11 Z33.00 F3500 
M42 P11 S0 
G1 X19.27 Y-20.11 Z33.00 F3500 
M42 P11 S255 
G1 X19.85 Y-19.82 Z33.00 F3500 
M42 P11 S0 
G1 X19.85 Y-19.82 Z33.00 F3500 
M42 P11 S255 
G1 X20.45 Y-19.41 Z33.00 F3500 
M42 P11 S0 
G1 X20.45 Y-19.41 Z33.00 F3500 
M42 P11 S255 
G1 X21.05 Y-18.90 Z33.00 F3500 
M42 P11 S0 
G1 X21.05 Y-18.90 Z33.00 F3500 
M42 P11 S255 
G1 X21.57 Y-18.32 Z33.00 F3500 
M42 P11 S0 
G1 X21.57 Y-18.32 Z33.00 F3500 
M42 P11 S255 
G1 X22.22 Y-17.59 Z33.00 F3500 
M42 P11 S0 
G1 X22.22 Y-17.59 Z33.00 F3500 
M42 P11 S255 
G1 X22.85 Y-17.02 Z33.00 F3500 
M42 P11 S0 
G1 X22.85 Y-17.02 Z33.00 F3500 
M42 P11 S255 
G1 X24.06 Y-15.95 Z33.00 F3500 
M42 P11 S0 
G1 X24.06 Y-15.95 Z33.00 F3500 
M42 P11 S255 
G1 X24.69 Y-15.46 Z33.00 F3500 
M42 P11 S0 
G1 X24.69 Y-15.46 Z33.00 F3500 
M42 P11 S255 
G1 X25.75 Y-14.67 Z33.00 F3500 
M42 P11 S0 
G1 X25.75 Y-14.67 Z33.00 F3500 
M42 P11 S255 
G1 X26.68 Y-13.95 Z33.00 F3500 
M42 P11 S0 
G1 X26.68 Y-13.95 Z33.00 F3500 
M42 P11 S255 
G1 X27.26 Y-13.51 Z33.00 F3500 
M42 P11 S0 
G1 X27.26 Y-13.51 Z33.00 F3500 
M42 P11 S255 
G1 X28.37 Y-12.57 Z33.00 F3500 
M42 P11 S0 
G1 X28.37 Y-12.57 Z33.00 F3500 
M42 P11 S255 
G1 X28.43 Y-12.52 Z33.00 F3500 
M42 P11 S0 
G1 X28.43 Y-12.52 Z33.00 F3500 
M42 P11 S255 
G1 X28.50 Y-12.43 Z33.00 F3500 
M42 P11 S0 
G1 X28.50 Y-12.43 Z33.00 F3500 
M42 P11 S255 
G1 X29.14 Y-11.54 Z33.00 F3500 
M42 P11 S0 
G1 X29.14 Y-11.54 Z33.00 F3500 
M42 P11 S255 
G1 X29.40 Y-11.00 Z33.00 F3500 
M42 P11 S0 
G1 X29.40 Y-11.00 Z33.00 F3500 
M42 P11 S255 
G1 X29.60 Y-10.37 Z33.00 F3500 
M42 P11 S0 
G1 X29.60 Y-10.37 Z33.00 F3500 
M42 P11 S255 
G1 X29.80 Y-9.62 Z33.00 F3500 
M42 P11 S0 
G1 X29.80 Y-9.62 Z33.00 F3500 
M42 P11 S255 
G1 X29.89 Y-9.22 Z33.00 F3500 
M42 P11 S0 
G1 X29.89 Y-9.22 Z33.00 F3500 
M42 P11 S255 
G1 X29.92 Y-8.89 Z33.00 F3500 
M42 P11 S0 
G1 X29.92 Y-8.89 Z33.00 F3500 
M42 P11 S255 
G1 X29.88 Y-7.79 Z33.00 F3500 
M42 P11 S0 
G1 X29.88 Y-7.79 Z33.00 F3500 
M42 P11 S255 
G1 X29.77 Y-7.14 Z33.00 F3500 
M42 P11 S0 
G1 X29.77 Y-7.14 Z33.00 F3500 
M42 P11 S255 
G1 X29.61 Y-5.84 Z33.00 F3500 
M42 P11 S0 
G1 X29.61 Y-5.84 Z33.00 F3500 
M42 P11 S255 
G1 X29.56 Y-5.42 Z33.00 F3500 
M42 P11 S0 
G1 X29.56 Y-5.42 Z33.00 F3500 
M42 P11 S255 
G1 X29.51 Y-3.88 Z33.00 F3500 
M42 P11 S0 
G1 X29.51 Y-3.88 Z33.00 F3500 
M42 P11 S255 
G1 X29.54 Y-3.57 Z33.00 F3500 
M42 P11 S0 
G1 X29.54 Y-3.57 Z33.00 F3500 
M42 P11 S255 
G1 X29.67 Y-2.37 Z33.00 F3500 
M42 P11 S0 
G1 X29.67 Y-2.37 Z33.00 F3500 
M42 P11 S255 
G1 X30.02 Y-1.07 Z33.00 F3500 
M42 P11 S0 
G1 X30.02 Y-1.07 Z33.00 F3500 
M42 P11 S255 
G1 X30.04 Y-1.01 Z33.00 F3500 
M42 P11 S0 
G1 X30.04 Y-1.01 Z33.00 F3500 
M42 P11 S255 
G1 X30.05 Y-0.94 Z33.00 F3500 
M42 P11 S0 
G1 X30.05 Y-0.94 Z33.00 F3500 
M42 P11 S255 
G1 X30.33 Y0.26 Z33.00 F3500 
M42 P11 S0 
G1 X30.33 Y0.26 Z33.00 F3500 
M42 P11 S255 
G1 X30.51 Y1.12 Z33.00 F3500 
M42 P11 S0 
G1 X30.51 Y1.12 Z33.00 F3500 
M42 P11 S255 
G1 X30.53 Y1.42 Z33.00 F3500 
M42 P11 S0 
G1 X30.53 Y1.42 Z33.00 F3500 
M42 P11 S255 
G1 X30.52 Y1.96 Z33.00 F3500 
M42 P11 S0 
G1 X30.52 Y1.96 Z33.00 F3500 
M42 P11 S255 
G1 X30.50 Y2.40 Z33.00 F3500 
M42 P11 S0 
G1 X30.50 Y2.40 Z33.00 F3500 
M42 P11 S255 
G1 X30.42 Y2.62 Z33.00 F3500 
M42 P11 S0 
G1 X30.42 Y2.62 Z33.00 F3500 
M42 P11 S255 
G1 X30.09 Y3.30 Z33.00 F3500 
M42 P11 S0 
G1 X30.09 Y3.30 Z33.00 F3500 
M42 P11 S255 
G1 X29.25 Y4.82 Z33.00 F3500 
M42 P11 S0 
G1 X29.25 Y4.82 Z33.00 F3500 
M42 P11 S255 
G1 X29.22 Y4.87 Z33.00 F3500 
M42 P11 S0 
G1 X29.22 Y4.87 Z33.00 F3500 
M42 P11 S255 
G1 X29.19 Y4.92 Z33.00 F3500 
M42 P11 S0 
G1 X29.19 Y4.92 Z33.00 F3500 
M42 P11 S255 
G1 X28.26 Y6.23 Z33.00 F3500 
M42 P11 S0 
G1 X28.26 Y6.23 Z33.00 F3500 
M42 P11 S255 
G1 X28.23 Y6.27 Z33.00 F3500 
M42 P11 S0 
G1 X28.23 Y6.27 Z33.00 F3500 
M42 P11 S255 
G1 X27.49 Y6.96 Z33.00 F3500 
M42 P11 S0 
G1 X27.49 Y6.96 Z33.00 F3500 
M42 P11 S255 
G1 X27.37 Y7.06 Z33.00 F3500 
M42 P11 S0 
G1 X27.37 Y7.06 Z33.00 F3500 
M42 P11 S255 
G1 X27.03 Y7.29 Z33.00 F3500 
M42 P11 S0 
G1 X27.03 Y7.29 Z33.00 F3500 
M42 P11 S255 
G1 X26.58 Y7.62 Z33.00 F3500 
M42 P11 S0 
G1 X26.58 Y7.62 Z33.00 F3500 
M42 P11 S255 
G1 X26.15 Y7.88 Z33.00 F3500 
M42 P11 S0 
G1 X26.15 Y7.88 Z33.00 F3500 
M42 P11 S255 
G1 X25.65 Y8.25 Z33.00 F3500 
M42 P11 S0 
G1 X25.65 Y8.25 Z33.00 F3500 
M42 P11 S255 
G1 X25.15 Y8.56 Z33.00 F3500 
M42 P11 S0 
G1 X25.15 Y8.56 Z33.00 F3500 
M42 P11 S255 
G1 X24.65 Y8.93 Z33.00 F3500 
M42 P11 S0 
G1 X24.65 Y8.93 Z33.00 F3500 
M42 P11 S255 
G1 X24.17 Y9.30 Z33.00 F3500 
M42 P11 S0 
G1 X24.17 Y9.30 Z33.00 F3500 
M42 P11 S255 
G1 X23.68 Y9.71 Z33.00 F3500 
M42 P11 S0 
G1 X23.68 Y9.71 Z33.00 F3500 
M42 P11 S255 
G1 X22.85 Y10.43 Z33.00 F3500 
M42 P11 S0 
G1 X22.85 Y10.43 Z33.00 F3500 
M42 P11 S255 
G1 X22.66 Y10.62 Z33.00 F3500 
M42 P11 S0 
G1 X22.66 Y10.62 Z33.00 F3500 
M42 P11 S255 
G1 X22.45 Y10.78 Z33.00 F3500 
M42 P11 S0 
G1 X22.45 Y10.78 Z33.00 F3500 
M42 P11 S255 
G1 X21.40 Y11.78 Z33.00 F3500 
M42 P11 S0 
G1 X21.40 Y11.78 Z33.00 F3500 
M42 P11 S255 
G1 X20.58 Y12.34 Z33.00 F3500 
M42 P11 S0 
G1 X20.58 Y12.34 Z33.00 F3500 
M42 P11 S255 
G1 X19.66 Y13.03 Z33.00 F3500 
M42 P11 S0 
G1 X19.66 Y13.03 Z33.00 F3500 
M42 P11 S255 
G1 X19.18 Y13.37 Z33.00 F3500 
M42 P11 S0 
G1 X19.18 Y13.37 Z33.00 F3500 
M42 P11 S255 
G1 X17.87 Y14.24 Z33.00 F3500 
M42 P11 S0 
G1 X17.87 Y14.24 Z33.00 F3500 
M42 P11 S255 
G1 X17.85 Y14.25 Z33.00 F3500 
M42 P11 S0 
G1 X17.85 Y14.25 Z33.00 F3500 
M42 P11 S255 
G1 X17.83 Y14.26 Z33.00 F3500 
M42 P11 S0 
G1 X17.83 Y14.26 Z33.00 F3500 
M42 P11 S255 
G1 X16.43 Y14.87 Z33.00 F3500 
M42 P11 S0 
G1 X16.43 Y14.87 Z33.00 F3500 
M42 P11 S255 
G1 X15.21 Y15.08 Z33.00 F3500 
M42 P11 S0 
G1 X15.21 Y15.08 Z33.00 F3500 
M42 P11 S255 
G1 X14.53 Y15.18 Z33.00 F3500 
M42 P11 S0 
G1 X14.53 Y15.18 Z33.00 F3500 
M42 P11 S255 
G1 X13.14 Y15.28 Z33.00 F3500 
M42 P11 S0 
G1 X13.14 Y15.28 Z33.00 F3500 
M42 P11 S255 
G1 X12.12 Y15.38 Z33.00 F3500 
M42 P11 S0 
G1 X12.12 Y15.38 Z33.00 F3500 
M42 P11 S255 
G1 X11.14 Y15.48 Z33.00 F3500 
M42 P11 S0 
G1 X11.14 Y15.48 Z33.00 F3500 
M42 P11 S255 
G1 X10.05 Y15.67 Z33.00 F3500 
M42 P11 S0 
G1 X10.05 Y15.67 Z33.00 F3500 
M42 P11 S255 
G1 X9.38 Y15.84 Z33.00 F3500 
M42 P11 S0 
G1 X9.38 Y15.84 Z33.00 F3500 
M42 P11 S255 
G1 X8.81 Y16.00 Z33.00 F3500 
M42 P11 S0 
G1 X8.81 Y16.00 Z33.00 F3500 
M42 P11 S255 
G1 X8.22 Y16.19 Z33.00 F3500 
M42 P11 S0 
G1 X8.22 Y16.19 Z33.00 F3500 
M42 P11 S255 
G1 X7.83 Y16.41 Z33.00 F3500 
M42 P11 S0 
G1 X7.83 Y16.41 Z33.00 F3500 
M42 P11 S255 
G1 X7.13 Y16.91 Z33.00 F3500 
M42 P11 S0 
G1 X7.13 Y16.91 Z33.00 F3500 
M42 P11 S255 
G1 X6.79 Y17.24 Z33.00 F3500 
M42 P11 S0 
G1 X6.79 Y17.24 Z33.00 F3500 
M42 P11 S255 
G1 X6.51 Y17.47 Z33.00 F3500 
M42 P11 S0 
G1 X6.51 Y17.47 Z33.00 F3500 
M42 P11 S255 
G1 X5.48 Y18.38 Z33.00 F3500 
M42 P11 S0 
G1 X5.48 Y18.38 Z33.00 F3500 
M42 P11 S255 
G1 X4.87 Y18.78 Z33.00 F3500 
M42 P11 S0 
G1 X4.87 Y18.78 Z33.00 F3500 
M42 P11 S255 
G1 X4.10 Y19.39 Z33.00 F3500 
M42 P11 S0 
G1 X4.10 Y19.39 Z33.00 F3500 
M42 P11 S255 
G1 X3.56 Y19.78 Z33.00 F3500 
M42 P11 S0 
G1 X3.56 Y19.78 Z33.00 F3500 
M42 P11 S255 
G1 X2.43 Y20.51 Z33.00 F3500 
M42 P11 S0 
G1 X2.43 Y20.51 Z33.00 F3500 
M42 P11 S255 
G1 X2.21 Y20.67 Z33.00 F3500 
M42 P11 S0 
G1 X2.21 Y20.67 Z33.00 F3500 
M42 P11 S255 
G1 X2.07 Y20.75 Z33.00 F3500 
M42 P11 S0 
G1 X2.07 Y20.75 Z33.00 F3500 
M42 P11 S255 
G1 X1.05 Y21.37 Z33.00 F3500 
M42 P11 S0 
G1 X1.05 Y21.37 Z33.00 F3500 
M42 P11 S255 
G1 X-0.21 Y22.02 Z33.00 F3500 
M42 P11 S0 
G1 X-0.21 Y22.02 Z33.00 F3500 
M42 P11 S255 
G1 X-0.30 Y22.07 Z33.00 F3500 
M42 P11 S0 
G1 X-0.30 Y22.07 Z33.00 F3500 
M42 P11 S255 
G1 X-0.39 Y22.11 Z33.00 F3500 
M42 P11 S0 
G1 X-0.39 Y22.11 Z33.00 F3500 
M42 P11 S255 
G1 X-1.63 Y22.72 Z33.00 F3500 
M42 P11 S0 
G1 X-1.63 Y22.72 Z33.00 F3500 
M42 P11 S255 
G1 X-3.08 Y23.29 Z33.00 F3500 
M42 P11 S0 
G1 X-3.08 Y23.29 Z33.00 F3500 
M42 P11 S255 
G1 X-3.20 Y23.34 Z33.00 F3500 
M42 P11 S0 
G1 X-3.20 Y23.34 Z33.00 F3500 
M42 P11 S255 
G1 X-3.33 Y23.39 Z33.00 F3500 
M42 P11 S0 
G1 X-3.33 Y23.39 Z33.00 F3500 
M42 P11 S255 
G1 X-4.67 Y23.86 Z33.00 F3500 
M42 P11 S0 
G1 X-4.67 Y23.86 Z33.00 F3500 
M42 P11 S255 
G1 X-6.01 Y24.29 Z33.00 F3500 
M42 P11 S0 
G1 X-6.01 Y24.29 Z33.00 F3500 
M42 P11 S255 
G1 X-6.30 Y24.37 Z33.00 F3500 
M42 P11 S0 
G1 X-6.30 Y24.37 Z33.00 F3500 
M42 P11 S255 
G1 X-6.47 Y24.40 Z33.00 F3500 
M42 P11 S0 
G1 X-6.47 Y24.40 Z33.00 F3500 
M42 P11 S255 
G1 X-8.15 Y24.76 Z33.00 F3500 
M42 P11 S0 
G1 X-8.15 Y24.76 Z33.00 F3500 
M42 P11 S255 
G1 X-8.45 Y24.82 Z33.00 F3500 
M42 P11 S0 
G1 X-8.45 Y24.82 Z33.00 F3500 
M42 P11 S255 
G1 X-10.15 Y25.13 Z33.00 F3500 
M42 P11 S0 
G1 X-10.15 Y25.13 Z33.00 F3500 
M42 P11 S255 
G1 X-10.31 Y25.17 Z33.00 F3500 
M42 P11 S0 
G1 X-10.31 Y25.17 Z33.00 F3500 
M42 P11 S255 
G1 X-10.92 Y25.35 Z33.00 F3500 
M42 P11 S0 
G1 X-10.92 Y25.35 Z33.00 F3500 
M42 P11 S255 
G1 X-12.07 Y25.68 Z33.00 F3500 
M42 P11 S0 
G1 X-12.07 Y25.68 Z33.00 F3500 
M42 P11 S255 
G1 X-12.48 Y25.89 Z33.00 F3500 
M42 P11 S0 
